; generated by Slic3r 1.3.0 on 2020-06-20 at 19:49:07

; external perimeters extrusion width = 0.55mm (4.37mm^3/s)
; perimeters extrusion width = 0.70mm (11.44mm^3/s)
; infill extrusion width = 0.63mm (13.45mm^3/s)
; solid infill extrusion width = 0.70mm (3.81mm^3/s)
; top infill extrusion width = 0.70mm (2.86mm^3/s)

M107
M104 S200 ; set temperature
G28 ; home all axes
G1 Z5 F5000 ; lift nozzle

; Filament gcode

M109 S200 ; set temperature and wait for it to be reached
G21 ; set units to millimeters
G90 ; use absolute coordinates
M82 ; use absolute distances for extrusion
G92 E0
G1 Z0.350 F7800.000
G1 E-2.00000 F2400.00000
G92 E0
G1 X79.915 Y88.253 F7800.000
G1 E2.00000 F2400.00000
G1 F1800
G1 X81.668 Y86.774 E2.07096
G1 X83.820 Y85.981 E2.14192
G1 X85.000 Y85.875 E2.17858
G1 X115.000 Y85.875 E3.10682
G1 X117.259 Y86.272 E3.17778
G1 X119.247 Y87.415 E3.24874
G1 X120.726 Y89.168 E3.31970
G1 X121.519 Y91.320 E3.39066
G1 X121.625 Y92.500 E3.42732
G1 X121.625 Y107.500 E3.89144
G1 X121.228 Y109.759 E3.96240
G1 X120.085 Y111.747 E4.03336
G1 X118.332 Y113.226 E4.10432
G1 X116.180 Y114.019 E4.17528
G1 X115.000 Y114.125 E4.21194
G1 X85.000 Y114.125 E5.14017
G1 X82.741 Y113.728 E5.21114
G1 X80.753 Y112.585 E5.28210
G1 X79.274 Y110.832 E5.35306
G1 X78.481 Y108.680 E5.42402
G1 X78.375 Y107.500 E5.46068
G1 X78.375 Y92.500 E5.92479
G1 X78.772 Y90.241 E5.99576
G1 X79.878 Y88.318 E6.06440
G1 E4.06440 F2400.00000
G92 E0
G1 X113.400 Y105.900 F7800.000
G1 E2.00000 F2400.00000
G1 F1800
G1 X105.369 Y105.900 E2.24849
G1 X105.348 Y105.763 E2.25279
G1 X104.548 Y104.195 E2.30725
G1 X103.305 Y102.952 E2.36164
G1 X101.738 Y102.153 E2.41608
G1 X100.000 Y101.877 E2.47052
G1 X98.262 Y102.153 E2.52496
G1 X96.695 Y102.952 E2.57940
G1 X95.452 Y104.195 E2.63379
G1 X94.653 Y105.762 E2.68823
G1 X94.631 Y105.900 E2.69255
G1 X86.600 Y105.900 E2.94104
G1 X86.600 Y94.100 E3.30616
G1 X113.400 Y94.100 E4.13540
G1 X113.400 Y105.825 E4.49820
G1 X114.025 Y106.525 F7800.000
G1 F1800
G1 X104.835 Y106.525 E4.78255
G1 X104.746 Y105.958 E4.80031
G1 X104.036 Y104.567 E4.84863
G1 X102.933 Y103.464 E4.89690
G1 X101.542 Y102.754 E4.94522
G1 X100.000 Y102.510 E4.99353
G1 X98.458 Y102.754 E5.04184
G1 X97.067 Y103.464 E5.09016
G1 X95.964 Y104.567 E5.13843
G1 X95.254 Y105.958 E5.18674
G1 X95.164 Y106.525 E5.20451
G1 X85.975 Y106.525 E5.48885
G1 X85.975 Y93.475 E5.89264
G1 X114.025 Y93.475 E6.76055
G1 X114.025 Y106.450 E7.16202
G1 X114.650 Y107.150 F7800.000
G1 F1800
G1 X104.301 Y107.150 E7.48223
G1 X104.144 Y106.154 E7.51344
G1 X103.525 Y104.939 E7.55564
G1 X102.561 Y103.975 E7.59779
G1 X101.347 Y103.356 E7.63998
G1 X100.000 Y103.143 E7.68216
G1 X98.653 Y103.356 E7.72435
G1 X97.439 Y103.975 E7.76654
G1 X96.475 Y104.939 E7.80869
G1 X95.856 Y106.153 E7.85088
G1 X95.698 Y107.150 E7.88210
G1 X85.350 Y107.150 E8.20228
G1 X85.350 Y92.850 E8.64474
G1 X114.650 Y92.850 E9.55132
G1 X114.650 Y107.075 E9.99146
G1 X114.156 Y107.075 F7800.000
G1 E7.99146 F2400.00000
G92 E0
G1 X112.532 Y105.518 F7800.000
G1 E2.00000 F2400.00000
G1 F1800
G1 X113.018 Y105.032 E2.02173
G1 X113.018 Y104.130 E2.05025
G1 X111.630 Y105.518 E2.11231
G1 X110.727 Y105.518 E2.14083
G1 X113.018 Y103.227 E2.24322
G1 X113.018 Y102.325 E2.27174
G1 X109.825 Y105.518 E2.41446
G1 X108.922 Y105.518 E2.44298
G1 X113.018 Y101.422 E2.62604
G1 X113.018 Y100.520 E2.65456
G1 X108.020 Y105.518 E2.87795
G1 X107.117 Y105.518 E2.90647
G1 X113.018 Y99.617 E3.17019
G1 X113.018 Y98.715 E3.19871
G1 X106.214 Y105.518 E3.50277
G1 X105.558 Y105.518 E3.52353
G1 X105.475 Y105.356 E3.52929
G1 X113.018 Y97.812 E3.86641
G1 X113.018 Y96.909 E3.89493
G1 X105.170 Y104.758 E4.24567
G1 X104.865 Y104.160 E4.26688
G1 X113.018 Y96.007 E4.63124
G1 X113.018 Y95.104 E4.65975
G1 X104.437 Y103.686 E5.04325
G1 X103.986 Y103.235 E5.06341
G1 X112.739 Y94.482 E5.45457
G1 X111.836 Y94.482 E5.48309
G1 X103.534 Y102.783 E5.85408
G1 X103.434 Y102.683 E5.85856
G1 X102.969 Y102.446 E5.87505
G1 X110.934 Y94.482 E6.23097
G1 X110.031 Y94.482 E6.25949
G1 X102.371 Y102.141 E6.60178
G1 X101.774 Y101.836 E6.62299
G1 X109.129 Y94.482 E6.95166
G1 X108.226 Y94.482 E6.98018
G1 X101.020 Y101.688 E7.30221
G1 X100.241 Y101.564 E7.32714
G1 X107.323 Y94.482 E7.64365
G1 X106.421 Y94.482 E7.67217
G1 X99.351 Y101.552 E7.98814
G1 X98.278 Y101.722 E8.02245
G1 X105.518 Y94.482 E8.34601
G1 X104.616 Y94.482 E8.37453
G1 X96.763 Y102.335 E8.72548
G1 X96.080 Y102.683 E8.74970
G1 X94.697 Y104.066 E8.81150
G1 X94.349 Y104.749 E8.83571
G1 X93.579 Y105.518 E8.87011
G1 X92.677 Y105.518 E8.89863
G1 X103.713 Y94.482 E9.39185
G1 X102.811 Y94.482 E9.42037
G1 X91.774 Y105.518 E9.91358
G1 X90.872 Y105.518 E9.94210
G1 X101.908 Y94.482 E10.43532
G1 X101.006 Y94.482 E10.46384
G1 X89.969 Y105.518 E10.95705
G1 X89.066 Y105.518 E10.98557
G1 X100.103 Y94.482 E11.47879
G1 X99.201 Y94.482 E11.50731
G1 X88.164 Y105.518 E12.00053
G1 X87.261 Y105.518 E12.02905
G1 X98.298 Y94.482 E12.52226
G1 X97.396 Y94.482 E12.55078
G1 X86.982 Y104.896 E13.01617
G1 X86.982 Y103.993 E13.04469
G1 X96.493 Y94.482 E13.46974
G1 X95.591 Y94.482 E13.49826
G1 X86.982 Y103.091 E13.88299
G1 X86.982 Y102.188 E13.91151
G1 X94.688 Y94.482 E14.25590
G1 X93.786 Y94.482 E14.28442
G1 X86.982 Y101.286 E14.58847
G1 X86.982 Y100.383 E14.61699
G1 X92.883 Y94.482 E14.88072
G1 X91.981 Y94.482 E14.90924
G1 X86.982 Y99.480 E15.13263
G1 X86.982 Y98.578 E15.16115
G1 X91.078 Y94.482 E15.34421
G1 X90.175 Y94.482 E15.37273
G1 X86.982 Y97.675 E15.51546
G1 X86.982 Y96.773 E15.54398
G1 X89.273 Y94.482 E15.64637
G1 X88.370 Y94.482 E15.67489
G1 X86.982 Y95.870 E15.73695
G1 X86.982 Y94.968 E15.76547
G1 X87.468 Y94.482 E15.78720
G1 Z0.650 F7800.000
G1 X113.529 Y106.029 F7800.000
G1 F3600
G1 X105.259 Y106.029 E16.01028
G1 X105.224 Y105.803 E16.01644
G1 X104.443 Y104.271 E16.06282
G1 X103.229 Y103.057 E16.10915
G1 X101.698 Y102.276 E16.15551
G1 X100.000 Y102.007 E16.20188
G1 X98.302 Y102.276 E16.24824
G1 X96.771 Y103.057 E16.29461
G1 X95.557 Y104.271 E16.34093
G1 X94.776 Y105.802 E16.38729
G1 X94.741 Y106.029 E16.39348
G1 X86.471 Y106.029 E16.61655
G1 X86.471 Y93.971 E16.94182
G1 X113.529 Y93.971 E17.67174
G1 X113.529 Y105.954 E17.99499
G1 X114.164 Y106.664 F7800.000
G1 F3600
G1 X104.716 Y106.664 E18.24987
G1 X104.612 Y106.002 E18.26796
G1 X103.922 Y104.650 E18.30890
G1 X102.850 Y103.578 E18.34980
G1 X101.499 Y102.888 E18.39074
G1 X100.000 Y102.651 E18.43167
G1 X98.501 Y102.888 E18.47260
G1 X97.150 Y103.578 E18.51353
G1 X96.078 Y104.650 E18.55443
G1 X95.388 Y106.001 E18.59536
G1 X95.283 Y106.664 E18.61347
G1 X85.836 Y106.664 E18.86834
G1 X85.836 Y93.336 E19.22790
G1 X114.164 Y93.336 E19.99211
G1 X114.164 Y106.589 E20.34965
G1 X114.725 Y107.225 F7800.000
G1 F1800
G1 X104.237 Y107.225 E20.56581
G1 X104.072 Y106.177 E20.58768
G1 X103.463 Y104.983 E20.61529
G1 X102.517 Y104.037 E20.64288
G1 X101.323 Y103.428 E20.67050
G1 X100.000 Y103.219 E20.69811
G1 X98.677 Y103.428 E20.72571
G1 X97.483 Y104.037 E20.75333
G1 X96.537 Y104.983 E20.78092
G1 X95.928 Y106.177 E20.80853
G1 X95.762 Y107.225 E20.83040
G1 X85.275 Y107.225 E21.04655
G1 X85.275 Y92.775 E21.34436
G1 X114.725 Y92.775 E21.95134
G1 X114.725 Y107.150 E22.24761
G1 X114.231 Y107.149 F7800.000
G1 X106.555 Y105.640 F7800.000
G1 F1200
G1 X104.879 Y103.964 E22.31265
G1 X104.716 Y103.646 E22.32246
G1 X103.360 Y102.289 E22.37510
G1 X103.041 Y102.127 E22.38491
G1 X113.140 Y94.854 F7800.000
G1 F1200
G1 X112.646 Y94.360 E22.40410
G1 X111.732 Y94.360 E22.42919
G1 X113.140 Y95.768 E22.48386
G1 X113.140 Y96.683 E22.50895
G1 X110.817 Y94.360 E22.59910
G1 X109.903 Y94.360 E22.62418
G1 X113.140 Y97.597 E22.74981
G1 X113.140 Y98.511 E22.77490
G1 X108.989 Y94.360 E22.93601
G1 X108.074 Y94.360 E22.96110
G1 X113.140 Y99.426 E23.15768
G1 X113.140 Y100.340 E23.18277
G1 X107.160 Y94.360 E23.41484
G1 X106.246 Y94.360 E23.43993
G1 X113.140 Y101.254 E23.70747
G1 X113.140 Y102.169 E23.73256
G1 X105.331 Y94.360 E24.03558
G1 X104.417 Y94.360 E24.06067
G1 X113.140 Y103.083 E24.39918
G1 X113.140 Y103.997 E24.42426
G1 X103.503 Y94.360 E24.79825
G1 X102.588 Y94.360 E24.82334
G1 X113.140 Y104.912 E25.23280
G1 X113.140 Y105.640 E25.25280
G1 X112.955 Y105.640 E25.25789
G1 X101.674 Y94.360 E25.69563
G1 X100.760 Y94.360 E25.72072
G1 X112.041 Y105.640 E26.15846
G1 X111.126 Y105.640 E26.18355
G1 X99.845 Y94.360 E26.62130
G1 X98.931 Y94.360 E26.64638
G1 X110.212 Y105.640 E27.08413
G1 X109.298 Y105.640 E27.10921
G1 X98.017 Y94.360 E27.54696
G1 X97.103 Y94.360 E27.57205
G1 X108.383 Y105.640 E28.00979
G1 X107.469 Y105.640 E28.03488
G1 X96.188 Y94.360 E28.47262
G1 X95.274 Y94.360 E28.49771
G1 X103.536 Y102.621 E28.81830
G1 X102.144 Y101.912 E28.86116
G1 X101.868 Y101.868 E28.86883
G1 X94.360 Y94.360 E29.16018
G1 X93.445 Y94.360 E29.18527
G1 X100.781 Y101.696 E29.46994
G1 X100.247 Y101.611 E29.48478
G1 X99.846 Y101.675 E29.49593
G1 X92.531 Y94.360 E29.77979
G1 X91.617 Y94.360 E29.80487
G1 X99.057 Y101.800 E30.09358
G1 X98.351 Y101.912 E30.11320
G1 X98.287 Y101.944 E30.11516
G1 X90.702 Y94.360 E30.40948
G1 X89.788 Y94.360 E30.43456
G1 X97.681 Y102.253 E30.74086
G1 X97.076 Y102.562 E30.75951
G1 X88.874 Y94.360 E31.07778
G1 X87.959 Y94.360 E31.10287
G1 X96.512 Y102.912 E31.43474
G1 X96.055 Y103.369 E31.45248
G1 X87.045 Y94.360 E31.80209
G1 X86.860 Y94.360 E31.80718
G1 X86.860 Y95.088 E31.82718
G1 X95.598 Y103.826 E32.16625
G1 X95.284 Y104.140 E32.17843
G1 X95.187 Y104.330 E32.18428
G1 X86.860 Y96.003 E32.50741
G1 X86.860 Y96.917 E32.53250
G1 X94.878 Y104.936 E32.84366
G1 X94.569 Y105.541 E32.86231
G1 X86.860 Y97.831 E33.16148
G1 X86.860 Y98.746 E33.18657
G1 X93.754 Y105.640 E33.45412
G1 X92.840 Y105.640 E33.47920
G1 X86.860 Y99.660 E33.71127
G1 X86.860 Y100.574 E33.73636
G1 X91.926 Y105.640 E33.93295
G1 X91.011 Y105.640 E33.95803
G1 X86.860 Y101.489 E34.11914
G1 X86.860 Y102.403 E34.14423
G1 X90.097 Y105.640 E34.26986
G1 X89.183 Y105.640 E34.29495
G1 X86.860 Y103.317 E34.38509
G1 X86.860 Y104.232 E34.41018
G1 X88.268 Y105.640 E34.46485
G1 X87.354 Y105.640 E34.48994
G1 X86.860 Y105.146 E34.50913
G1 Z0.950 F7800.000
G1 E32.50913 F2400.00000
G92 E0
G1 X113.529 Y106.029 F7800.000
G1 E2.00000 F2400.00000
G1 F3600
G1 X105.259 Y106.029 E2.22308
G1 X105.224 Y105.803 E2.22924
G1 X104.443 Y104.271 E2.27562
G1 X103.229 Y103.057 E2.32195
G1 X101.698 Y102.276 E2.36831
G1 X100.000 Y102.007 E2.41468
G1 X98.302 Y102.276 E2.46104
G1 X96.771 Y103.057 E2.50741
G1 X95.557 Y104.271 E2.55373
G1 X94.776 Y105.802 E2.60009
G1 X94.741 Y106.029 E2.60628
G1 X86.471 Y106.029 E2.82935
G1 X86.471 Y93.971 E3.15462
G1 X113.529 Y93.971 E3.88454
G1 X113.529 Y105.954 E4.20779
G1 X114.164 Y106.664 F7800.000
G1 F3600
G1 X104.716 Y106.664 E4.46267
G1 X104.612 Y106.002 E4.48076
G1 X103.922 Y104.650 E4.52170
G1 X102.850 Y103.578 E4.56260
G1 X101.499 Y102.888 E4.60354
G1 X100.000 Y102.651 E4.64447
G1 X98.501 Y102.888 E4.68540
G1 X97.150 Y103.578 E4.72633
G1 X96.078 Y104.650 E4.76723
G1 X95.388 Y106.001 E4.80816
G1 X95.283 Y106.664 E4.82627
G1 X85.836 Y106.664 E5.08114
G1 X85.836 Y93.336 E5.44070
G1 X114.164 Y93.336 E6.20491
G1 X114.164 Y106.589 E6.56245
G1 X114.725 Y107.225 F7800.000
G1 F1800
G1 X104.237 Y107.225 E6.77861
G1 X104.072 Y106.177 E6.80048
G1 X103.463 Y104.983 E6.82809
G1 X102.517 Y104.037 E6.85568
G1 X101.323 Y103.428 E6.88330
G1 X100.000 Y103.219 E6.91091
G1 X98.677 Y103.428 E6.93851
G1 X97.483 Y104.037 E6.96613
G1 X96.537 Y104.983 E6.99372
G1 X95.928 Y106.177 E7.02133
G1 X95.762 Y107.225 E7.04320
G1 X85.275 Y107.225 E7.25935
G1 X85.275 Y92.775 E7.55716
G1 X114.725 Y92.775 E8.16414
G1 X114.725 Y107.150 E8.46041
G1 X114.231 Y107.149 F7800.000
G1 E6.46041 F2400.00000
G92 E0
G1 X112.646 Y105.640 F7800.000
G1 E2.00000 F2400.00000
G1 F900
G1 X113.140 Y105.146 E2.01919
G1 X113.140 Y104.232 E2.04428
G1 X111.732 Y105.640 E2.09895
G1 X110.817 Y105.640 E2.12404
G1 X113.140 Y103.317 E2.21418
G1 X113.140 Y102.403 E2.23927
G1 X109.903 Y105.640 E2.36490
G1 X108.989 Y105.640 E2.38999
G1 X113.140 Y101.489 E2.55109
G1 X113.140 Y100.574 E2.57618
G1 X108.074 Y105.640 E2.77277
G1 X107.160 Y105.640 E2.79786
G1 X113.140 Y99.660 E3.02992
G1 X113.140 Y98.746 E3.05501
G1 X106.246 Y105.640 E3.32256
G1 X105.481 Y105.640 E3.34353
G1 X105.431 Y105.541 E3.34659
G1 X113.140 Y97.831 E3.64576
G1 X113.140 Y96.917 E3.67085
G1 X105.122 Y104.936 E3.98200
G1 X104.813 Y104.330 E4.00065
G1 X113.140 Y96.003 E4.32379
G1 X113.140 Y95.088 E4.34888
G1 X104.402 Y103.826 E4.68795
G1 X103.945 Y103.369 E4.70569
G1 X112.955 Y94.360 E5.05530
G1 X112.041 Y94.360 E5.08039
G1 X103.488 Y102.912 E5.41226
G1 X103.360 Y102.784 E5.41724
G1 X102.924 Y102.562 E5.43065
G1 X111.126 Y94.360 E5.74892
G1 X110.212 Y94.360 E5.77401
G1 X102.319 Y102.253 E6.08030
G1 X101.713 Y101.944 E6.09896
G1 X109.298 Y94.360 E6.39327
G1 X108.383 Y94.360 E6.41836
G1 X100.943 Y101.800 E6.70706
G1 X100.154 Y101.675 E6.72899
G1 X107.469 Y94.360 E7.01284
G1 X106.555 Y94.360 E7.03793
G1 X99.219 Y101.696 E7.32260
G1 X98.132 Y101.868 E7.35279
G1 X105.640 Y94.360 E7.64414
G1 X104.726 Y94.360 E7.66923
G1 X96.465 Y102.621 E7.98981
G1 X96.146 Y102.784 E7.99963
G1 X94.789 Y104.140 E8.05227
G1 X94.627 Y104.459 E8.06209
G1 X93.445 Y105.640 E8.10793
G1 X92.531 Y105.640 E8.13302
G1 X103.812 Y94.360 E8.57076
G1 X102.897 Y94.360 E8.59585
G1 X91.617 Y105.640 E9.03359
G1 X90.702 Y105.640 E9.05868
G1 X101.983 Y94.360 E9.49642
G1 X101.069 Y94.360 E9.52151
G1 X89.788 Y105.640 E9.95925
G1 X88.874 Y105.640 E9.98434
G1 X100.155 Y94.360 E10.42208
G1 X99.240 Y94.360 E10.44717
G1 X87.959 Y105.640 E10.88491
G1 X87.045 Y105.640 E10.91000
G1 X98.326 Y94.360 E11.34774
G1 X97.412 Y94.360 E11.37283
G1 X86.860 Y104.912 E11.78229
G1 X86.860 Y103.997 E11.80738
G1 X96.497 Y94.360 E12.18136
G1 X95.583 Y94.360 E12.20645
G1 X86.860 Y103.083 E12.54496
G1 X86.860 Y102.169 E12.57004
G1 X94.669 Y94.360 E12.87307
G1 X93.754 Y94.360 E12.89816
G1 X86.860 Y101.254 E13.16570
G1 X86.860 Y100.340 E13.19079
G1 X92.840 Y94.360 E13.42286
G1 X91.926 Y94.360 E13.44794
G1 X86.860 Y99.426 E13.64453
G1 X86.860 Y98.511 E13.66962
G1 X91.011 Y94.360 E13.83073
G1 X90.097 Y94.360 E13.85581
G1 X86.860 Y97.597 E13.98144
G1 X86.860 Y96.683 E14.00653
G1 X89.183 Y94.360 E14.09668
G1 X88.269 Y94.360 E14.12177
G1 X86.860 Y95.768 E14.17644
G1 X86.860 Y94.854 E14.20152
G1 X87.354 Y94.360 E14.22072
G1 E12.22072 F2400.00000
G92 E0
; Filament-specific end gcode 
;END gcode for filament

M104 S0 ; turn off temperature
G28 X0  ; home X axis
M84     ; disable motors

M140 S0 ; set bed temperature
; filament used = 63.2mm (0.4cm3)
; total filament cost = 0.0

; avoid_crossing_perimeters = 0
; bed_shape = 0x0,200x0,200x200,0x200
; bed_temperature = 0
; before_layer_gcode = 
; between_objects_gcode = 
; bridge_acceleration = 0
; bridge_fan_speed = 100
; brim_connections_width = 0
; brim_width = 0
; complete_objects = 0
; cooling = 1
; default_acceleration = 0
; disable_fan_first_layers = 3
; duplicate_distance = 6
; end_filament_gcode = "; Filament-specific end gcode \n;END gcode for filament\n"
; end_gcode = M104 S0 ; turn off temperature\nG28 X0  ; home X axis\nM84     ; disable motors\n
; extruder_clearance_height = 20
; extruder_clearance_radius = 20
; extruder_offset = 0x0
; extrusion_axis = E
; extrusion_multiplier = 1
; fan_always_on = 0
; fan_below_layer_time = 60
; filament_colour = #FFFFFF
; filament_cost = 0
; filament_density = 0
; filament_diameter = 3
; filament_max_volumetric_speed = 0
; filament_notes = ""
; first_layer_acceleration = 0
; first_layer_bed_temperature = 0
; first_layer_extrusion_width = 200%
; first_layer_speed = 30
; first_layer_temperature = 200
; gcode_arcs = 0
