; generated by Slic3r 1.3.0 on 2020-06-20 at 19:50:21

; external perimeters extrusion width = 0.55mm (4.37mm^3/s)
; perimeters extrusion width = 0.70mm (11.44mm^3/s)
; infill extrusion width = 0.63mm (13.45mm^3/s)
; solid infill extrusion width = 0.70mm (3.81mm^3/s)
; top infill extrusion width = 0.70mm (2.86mm^3/s)

M107
M104 S200 ; set temperature
G28 ; home all axes
G1 Z5 F5000 ; lift nozzle

; Filament gcode

M109 S200 ; set temperature and wait for it to be reached
G21 ; set units to millimeters
G90 ; use absolute coordinates
M82 ; use absolute distances for extrusion
G92 E0
G1 Z0.350 F7800.000
G1 E-2.00000 F2400.00000
G92 E0
G1 X71.668 Y88.484 F7800.000
G1 E2.00000 F2400.00000
G1 F1800
G1 X73.149 Y87.849 E2.04987
G1 X86.913 Y83.845 E2.49340
G1 X87.673 Y83.672 E2.51751
G1 X88.909 Y83.466 E2.55629
G1 X90.791 Y83.423 E2.61453
G1 X125.791 Y87.633 E3.70529
G1 X127.987 Y88.297 E3.77625
G1 X129.824 Y89.670 E3.84721
G1 X131.083 Y91.586 E3.91817
G1 X131.625 Y94.211 E4.00108
G1 X131.625 Y110.000 E4.48962
G1 X131.228 Y112.259 E4.56059
G1 X130.085 Y114.247 E4.63155
G1 X128.332 Y115.726 E4.70251
G1 X126.180 Y116.519 E4.77347
G1 X125.000 Y116.625 E4.81013
G1 X75.000 Y116.625 E6.35719
G1 X72.741 Y116.228 E6.42815
G1 X70.753 Y115.085 E6.49912
G1 X69.274 Y113.332 E6.57008
G1 X68.481 Y111.180 E6.64104
G1 X68.375 Y110.000 E6.67769
G1 X68.375 Y94.211 E7.16624
G1 X68.772 Y91.952 E7.23720
G1 X69.915 Y89.964 E7.30816
G1 X71.611 Y88.533 E7.37680
G1 E5.37680 F2400.00000
G92 E0
G1 X92.623 Y95.810 F7800.000
G1 E2.00000 F2400.00000
G1 F1800
G1 X123.400 Y95.810 E2.95228
G1 X123.400 Y108.400 E3.34183
G1 X115.380 Y108.400 E3.58999
G1 X115.353 Y108.219 E3.59565
G1 X114.569 Y106.602 E3.65126
G1 X113.336 Y105.303 E3.70667
G1 X111.761 Y104.458 E3.76198
G1 X110.000 Y104.164 E3.81721
G1 X108.239 Y104.458 E3.87244
G1 X106.664 Y105.303 E3.92776
G1 X105.431 Y106.602 E3.98317
G1 X104.647 Y108.220 E4.03880
G1 X104.620 Y108.400 E4.04444
G1 X76.600 Y108.400 E4.91142
G1 X76.600 Y95.810 E5.30097
G1 X87.377 Y95.810 E5.63442
G1 X87.742 Y93.388 E5.71022
G1 X88.095 Y92.657 E5.73535
G1 X88.632 Y92.093 E5.75944
G1 X89.288 Y91.741 E5.78246
G1 X90.000 Y91.622 E5.80481
G1 X90.712 Y91.741 E5.82716
G1 X91.368 Y92.093 E5.85019
G1 X91.905 Y92.657 E5.87428
G1 X92.258 Y93.388 E5.89940
G1 X92.612 Y95.736 E5.97288
G1 X93.161 Y95.185 F7800.000
G1 F1800
G1 X124.025 Y95.185 E6.92786
G1 X124.025 Y109.025 E7.35608
G1 X114.842 Y109.025 E7.64021
G1 X114.749 Y108.406 E7.65957
G1 X114.049 Y106.962 E7.70924
G1 X112.952 Y105.807 E7.75853
G1 X111.556 Y105.058 E7.80755
G1 X110.000 Y104.798 E7.85636
G1 X108.444 Y105.058 E7.90518
G1 X107.048 Y105.807 E7.95419
G1 X105.951 Y106.962 E8.00349
G1 X105.251 Y108.407 E8.05316
G1 X105.158 Y109.025 E8.07251
G1 X75.975 Y109.025 E8.97548
G1 X75.975 Y95.185 E9.40370
G1 X86.839 Y95.185 E9.73985
G1 X87.138 Y93.201 E9.80195
G1 X87.575 Y92.297 E9.83302
G1 X88.248 Y91.589 E9.86323
G1 X89.083 Y91.141 E9.89255
G1 X90.000 Y90.988 E9.92131
G1 X90.917 Y91.141 E9.95008
G1 X91.752 Y91.589 E9.97940
G1 X92.425 Y92.297 E10.00961
G1 X92.862 Y93.201 E10.04068
G1 X93.150 Y95.111 E10.10045
G1 X93.699 Y94.561 F7800.000
G1 F1800
G1 X124.650 Y94.561 E11.05812
G1 X124.650 Y109.650 E11.52501
G1 X114.304 Y109.650 E11.84512
G1 X114.145 Y108.593 E11.87819
G1 X113.529 Y107.322 E11.92191
G1 X112.568 Y106.310 E11.96509
G1 X111.352 Y105.657 E12.00781
G1 X110.000 Y105.431 E12.05020
G1 X108.648 Y105.657 E12.09260
G1 X107.432 Y106.310 E12.13532
G1 X106.471 Y107.322 E12.17850
G1 X105.855 Y108.593 E12.22222
G1 X105.697 Y109.650 E12.25528
G1 X75.350 Y109.650 E13.19424
G1 X75.350 Y94.561 E13.66113
G1 X86.301 Y94.561 E13.99998
G1 X86.534 Y93.014 E14.04836
G1 X87.055 Y91.937 E14.08538
G1 X87.864 Y91.086 E14.12171
G1 X88.879 Y90.542 E14.15733
G1 X90.000 Y90.355 E14.19251
G1 X91.121 Y90.542 E14.22769
G1 X92.136 Y91.086 E14.26331
G1 X92.945 Y91.937 E14.29964
G1 X93.466 Y93.014 E14.33665
G1 X93.688 Y94.486 E14.38272
G1 X93.745 Y95.058 F7800.000
G1 E12.38272 F2400.00000
G92 E0
G1 X88.878 Y92.782 F7800.000
G1 E2.00000 F2400.00000
G1 F1800
G1 X88.772 Y92.839 E2.00373
G1 X88.373 Y93.260 E2.02180
G1 X88.346 Y93.314 E2.02367
G1 X89.364 Y92.296 E2.06847
G1 X89.735 Y92.097 E2.08157
G1 X90.243 Y92.012 E2.09760
G1 X90.495 Y92.054 E2.10554
G1 X87.991 Y94.558 E2.21575
G1 X87.833 Y95.605 E2.24869
G1 X91.135 Y92.303 E2.39401
G1 X91.228 Y92.353 E2.39728
G1 X91.591 Y92.736 E2.41371
G1 X87.676 Y96.651 E2.58606
G1 E0.58606 F2400.00000
G92 E0
G1 X77.468 Y96.192 F7800.000
G1 E2.00000 F2400.00000
G1 F1800
G1 X76.982 Y96.678 E2.02140
G1 X76.982 Y97.567 E2.04907
G1 X78.357 Y96.192 E2.10959
G1 X79.246 Y96.192 E2.13726
G1 X76.982 Y98.456 E2.23691
G1 X76.982 Y99.345 E2.26457
G1 X80.135 Y96.192 E2.40335
G1 X81.024 Y96.192 E2.43102
G1 X76.982 Y100.234 E2.60892
G1 X76.982 Y101.123 E2.63658
G1 X81.912 Y96.192 E2.85361
G1 X82.801 Y96.192 E2.88128
G1 X76.982 Y102.012 E3.13743
G1 X76.982 Y102.901 E3.16509
G1 X83.690 Y96.192 E3.46037
G1 X84.579 Y96.192 E3.48804
G1 X76.982 Y103.790 E3.82244
G1 X76.982 Y104.679 E3.85010
G1 X85.468 Y96.192 E4.22363
G1 X86.357 Y96.192 E4.25130
G1 X76.982 Y105.568 E4.66395
G1 X76.982 Y106.456 E4.69162
G1 X87.246 Y96.192 E5.14339
G1 X88.135 Y96.192 E5.17106
G1 X76.982 Y107.345 E5.66196
G1 X76.982 Y108.018 E5.68291
G1 X77.198 Y108.018 E5.68963
G1 X91.893 Y93.323 E6.33645
G1 X92.012 Y94.093 E6.36070
G1 X78.086 Y108.018 E6.97363
G1 X78.975 Y108.018 E7.00130
G1 X92.129 Y94.865 E7.58023
G1 X92.245 Y95.638 E7.60454
G1 X79.864 Y108.018 E8.14947
G1 X80.753 Y108.018 E8.17714
G1 X92.579 Y96.192 E8.69766
G1 X93.468 Y96.192 E8.72533
G1 X81.642 Y108.018 E9.24585
G1 X82.531 Y108.018 E9.27352
G1 X94.357 Y96.192 E9.79404
G1 X95.246 Y96.192 E9.82171
G1 X83.420 Y108.018 E10.34224
G1 X84.309 Y108.018 E10.36990
G1 X96.135 Y96.192 E10.89043
G1 X97.024 Y96.192 E10.91809
G1 X85.198 Y108.018 E11.43862
G1 X86.087 Y108.018 E11.46629
G1 X97.913 Y96.192 E11.98681
G1 X98.802 Y96.192 E12.01448
G1 X86.976 Y108.018 E12.53500
G1 X87.864 Y108.018 E12.56267
G1 X99.691 Y96.192 E13.08320
G1 X100.580 Y96.192 E13.11086
G1 X88.753 Y108.018 E13.63139
G1 X89.642 Y108.018 E13.65905
G1 X101.469 Y96.192 E14.17958
G1 X102.357 Y96.192 E14.20724
G1 X90.531 Y108.018 E14.72777
G1 X91.420 Y108.018 E14.75544
G1 X103.246 Y96.192 E15.27596
G1 X104.135 Y96.192 E15.30363
G1 X92.309 Y108.018 E15.82415
G1 X93.198 Y108.018 E15.85182
G1 X105.024 Y96.192 E16.37235
G1 X105.913 Y96.192 E16.40001
G1 X94.087 Y108.018 E16.92054
G1 X94.976 Y108.018 E16.94820
G1 X106.802 Y96.192 E17.46873
G1 X107.691 Y96.192 E17.49639
G1 X95.865 Y108.018 E18.01692
G1 X96.754 Y108.018 E18.04459
G1 X108.580 Y96.192 E18.56511
G1 X109.469 Y96.192 E18.59278
G1 X97.643 Y108.018 E19.11330
G1 X98.531 Y108.018 E19.14097
G1 X110.358 Y96.192 E19.66150
G1 X111.247 Y96.192 E19.68916
G1 X99.420 Y108.018 E20.20969
G1 X100.309 Y108.018 E20.23735
G1 X112.136 Y96.192 E20.75788
G1 X113.024 Y96.192 E20.78554
G1 X101.198 Y108.018 E21.30607
G1 X102.087 Y108.018 E21.33374
G1 X113.913 Y96.192 E21.85426
G1 X114.802 Y96.192 E21.88193
G1 X102.976 Y108.018 E22.40245
G1 X103.865 Y108.018 E22.43012
G1 X103.981 Y107.902 E22.43524
G1 X104.668 Y106.485 E22.48425
G1 X106.037 Y105.043 E22.54613
G1 X107.770 Y104.113 E22.60734
G1 X115.691 Y96.192 E22.95599
G1 X116.580 Y96.192 E22.98365
G1 X108.846 Y103.926 E23.32405
G1 X109.757 Y103.774 E23.35278
G1 X109.869 Y103.793 E23.35630
G1 X117.469 Y96.192 E23.69083
G1 X118.358 Y96.192 E23.71849
G1 X110.630 Y103.920 E24.05862
G1 X111.392 Y104.047 E24.08265
G1 X119.247 Y96.192 E24.42837
G1 X120.136 Y96.192 E24.45603
G1 X112.050 Y104.278 E24.81192
G1 X112.629 Y104.588 E24.83235
G1 X121.025 Y96.192 E25.20190
G1 X121.914 Y96.192 E25.22956
G1 X113.207 Y104.899 E25.61278
G1 X113.477 Y105.043 E25.62230
G1 X113.708 Y105.287 E25.63275
G1 X122.803 Y96.192 E26.03304
G1 X123.018 Y96.192 E26.03976
G1 X123.018 Y96.865 E26.06071
G1 X114.141 Y105.743 E26.45144
G1 X114.574 Y106.198 E26.47101
G1 X123.018 Y97.754 E26.84268
G1 X123.018 Y98.643 E26.87035
G1 X114.954 Y106.707 E27.22529
G1 X115.244 Y107.306 E27.24600
G1 X123.018 Y99.532 E27.58819
G1 X123.018 Y100.421 E27.61585
G1 X115.534 Y107.905 E27.94527
G1 X115.589 Y108.018 E27.94918
G1 X116.310 Y108.018 E27.97162
G1 X123.018 Y101.310 E28.26689
G1 X123.018 Y102.199 E28.29456
G1 X117.199 Y108.018 E28.55071
G1 X118.088 Y108.018 E28.57838
G1 X123.018 Y103.088 E28.79540
G1 X123.018 Y103.977 E28.82307
G1 X118.977 Y108.018 E29.00097
G1 X119.865 Y108.018 E29.02863
G1 X123.018 Y104.865 E29.16741
G1 X123.018 Y105.754 E29.19507
G1 X120.754 Y108.018 E29.29472
G1 X121.643 Y108.018 E29.32239
G1 X123.018 Y106.643 E29.38291
G1 X123.018 Y107.532 E29.41058
G1 X122.532 Y108.018 E29.43198
G1 Z0.650 F7800.000
G1 X92.734 Y95.682 F7800.000
G1 F3600
G1 X123.529 Y95.682 E30.26272
G1 X123.529 Y108.529 E30.60929
G1 X115.269 Y108.529 E30.83210
G1 X115.229 Y108.258 E30.83949
G1 X114.462 Y106.676 E30.88691
G1 X113.257 Y105.407 E30.93412
G1 X111.719 Y104.581 E30.98122
G1 X110.000 Y104.295 E31.02822
G1 X108.281 Y104.581 E31.07522
G1 X106.743 Y105.407 E31.12232
G1 X105.538 Y106.676 E31.16953
G1 X104.771 Y108.258 E31.21697
G1 X104.731 Y108.529 E31.22434
G1 X76.471 Y108.529 E31.98668
G1 X76.471 Y95.682 E32.33325
G1 X87.266 Y95.682 E32.62446
G1 X87.618 Y93.349 E32.68809
G1 X87.988 Y92.583 E32.71106
G1 X88.553 Y91.989 E32.73316
G1 X89.245 Y91.618 E32.75437
G1 X90.000 Y91.492 E32.77500
G1 X90.755 Y91.618 E32.79564
G1 X91.447 Y91.989 E32.81684
G1 X92.012 Y92.583 E32.83894
G1 X92.382 Y93.349 E32.86191
G1 X92.723 Y95.608 E32.92352
G1 X93.281 Y95.046 F7800.000
G1 F3600
G1 X124.164 Y95.046 E33.75665
G1 X124.164 Y109.164 E34.13751
G1 X114.722 Y109.164 E34.39223
G1 X114.614 Y108.448 E34.41177
G1 X113.933 Y107.042 E34.45392
G1 X112.866 Y105.919 E34.49571
G1 X111.511 Y105.191 E34.53722
G1 X110.000 Y104.939 E34.57853
G1 X108.489 Y105.191 E34.61984
G1 X107.134 Y105.919 E34.66135
G1 X106.067 Y107.042 E34.70315
G1 X105.385 Y108.448 E34.74530
G1 X105.278 Y109.164 E34.76483
G1 X75.836 Y109.164 E35.55909
G1 X75.836 Y95.046 E35.93995
G1 X86.719 Y95.046 E36.23355
G1 X87.003 Y93.159 E36.28503
G1 X87.459 Y92.217 E36.31327
G1 X88.162 Y91.477 E36.34080
G1 X89.037 Y91.008 E36.36759
G1 X90.000 Y90.847 E36.39391
G1 X90.963 Y91.008 E36.42024
G1 X91.838 Y91.477 E36.44703
G1 X92.541 Y92.217 E36.47455
G1 X92.997 Y93.159 E36.50280
G1 X93.270 Y94.972 E36.55225
G1 X93.763 Y94.486 F7800.000
G1 F1800
G1 X124.725 Y94.486 E37.19038
G1 X124.725 Y109.725 E37.50447
G1 X114.240 Y109.725 E37.72057
G1 X114.073 Y108.616 E37.74370
G1 X113.467 Y107.365 E37.77234
G1 X112.522 Y106.370 E37.80062
G1 X111.327 Y105.729 E37.82857
G1 X110.000 Y105.508 E37.85630
G1 X108.673 Y105.729 E37.88402
G1 X107.478 Y106.370 E37.91198
G1 X106.533 Y107.365 E37.94025
G1 X105.927 Y108.616 E37.96890
G1 X105.761 Y109.725 E37.99202
G1 X75.275 Y109.725 E38.62034
G1 X75.275 Y94.486 E38.93443
G1 X86.237 Y94.486 E39.16036
G1 X86.462 Y92.992 E39.19149
G1 X86.993 Y91.894 E39.21663
G1 X87.818 Y91.026 E39.24131
G1 X88.854 Y90.470 E39.26554
G1 X90.000 Y90.279 E39.28949
G1 X91.146 Y90.470 E39.31344
G1 X92.182 Y91.026 E39.33767
G1 X93.007 Y91.894 E39.36236
G1 X93.538 Y92.992 E39.38749
G1 X93.752 Y94.411 E39.41708
G1 X93.811 Y94.983 F7800.000
G1 X92.156 Y94.716 F7800.000
G1 F1200
G1 X89.389 Y91.950 E39.52398
G1 X89.206 Y91.980 E39.52904
G1 X88.752 Y92.223 E39.54312
G1 X92.317 Y95.788 E39.68087
G1 X92.434 Y96.565 E39.70232
G1 X93.094 Y96.565 E39.72035
G1 X91.902 Y93.552 F7800.000
G1 F1200
G1 X90.365 Y92.015 E39.77972
G1 X90.810 Y92.254 E39.79349
G1 X91.235 Y92.702 E39.81038
G1 X91.407 Y93.058 E39.82118
G1 X77.354 Y108.140 F7800.000
G1 F1200
G1 X76.860 Y107.646 E39.84028
G1 X76.860 Y106.735 E39.86516
G1 X78.265 Y108.140 E39.91946
G1 X79.175 Y108.140 E39.94434
G1 X76.860 Y105.825 E40.03382
G1 X76.860 Y104.914 E40.05870
G1 X80.086 Y108.140 E40.18336
G1 X80.996 Y108.140 E40.20824
G1 X76.860 Y104.004 E40.36809
G1 X76.860 Y103.093 E40.39297
G1 X81.907 Y108.140 E40.58800
G1 X82.817 Y108.140 E40.61288
G1 X76.860 Y102.183 E40.84310
G1 X76.860 Y101.272 E40.86798
G1 X83.728 Y108.140 E41.13339
G1 X84.638 Y108.140 E41.15827
G1 X76.860 Y100.362 E41.45885
G1 X76.860 Y99.451 E41.48373
G1 X85.549 Y108.140 E41.81951
G1 X86.459 Y108.140 E41.84439
G1 X76.860 Y98.541 E42.21534
G1 X76.860 Y97.630 E42.24022
G1 X87.370 Y108.140 E42.64637
G1 X88.280 Y108.140 E42.67125
G1 X76.860 Y96.720 E43.11257
G1 X76.860 Y96.070 E43.13032
G1 X77.121 Y96.070 E43.13745
G1 X89.191 Y108.140 E43.60388
G1 X90.101 Y108.140 E43.62876
G1 X78.031 Y96.070 E44.09519
G1 X78.942 Y96.070 E44.12007
G1 X91.012 Y108.140 E44.58650
G1 X91.922 Y108.140 E44.61138
G1 X79.852 Y96.070 E45.07781
G1 X80.763 Y96.070 E45.10269
G1 X92.833 Y108.140 E45.56912
G1 X93.743 Y108.140 E45.59400
G1 X81.673 Y96.070 E46.06043
G1 X82.584 Y96.070 E46.08531
G1 X94.654 Y108.140 E46.55174
G1 X95.564 Y108.140 E46.57662
G1 X83.494 Y96.070 E47.04305
G1 X84.405 Y96.070 E47.06793
G1 X96.475 Y108.140 E47.53436
G1 X97.385 Y108.140 E47.55924
G1 X85.315 Y96.070 E48.02567
G1 X86.226 Y96.070 E48.05055
G1 X98.296 Y108.140 E48.51698
G1 X99.206 Y108.140 E48.54186
G1 X87.136 Y96.070 E49.00829
G1 X87.566 Y96.070 E49.02004
G1 X87.629 Y95.652 E49.03158
G1 X100.117 Y108.140 E49.51415
G1 X101.027 Y108.140 E49.53903
G1 X87.748 Y94.861 E50.05218
G1 X87.867 Y94.070 E50.07404
G1 X101.938 Y108.140 E50.61777
G1 X102.848 Y108.140 E50.64265
G1 X87.990 Y93.282 E51.21684
G1 X88.295 Y92.676 E51.23536
G1 X103.759 Y108.140 E51.83295
G1 X104.489 Y108.140 E51.85290
G1 X104.548 Y108.019 E51.85659
G1 X92.599 Y96.070 E52.31833
G1 X93.510 Y96.070 E52.34320
G1 X104.845 Y107.405 E52.78124
G1 X105.142 Y106.792 E52.79986
G1 X94.420 Y96.070 E53.21419
G1 X95.331 Y96.070 E53.23907
G1 X105.530 Y106.269 E53.63318
G1 X105.973 Y105.802 E53.65078
G1 X96.241 Y96.070 E54.02685
G1 X97.152 Y96.070 E54.05173
G1 X106.417 Y105.335 E54.40976
G1 X106.600 Y105.142 E54.41702
G1 X106.948 Y104.956 E54.42781
G1 X98.062 Y96.070 E54.77118
G1 X98.973 Y96.070 E54.79606
G1 X107.540 Y104.638 E55.12713
G1 X108.133 Y104.320 E55.14551
G1 X99.883 Y96.070 E55.46429
G1 X100.794 Y96.070 E55.48917
G1 X108.854 Y104.130 E55.80063
G1 X109.634 Y104.000 E55.82225
G1 X101.704 Y96.070 E56.12868
G1 X102.615 Y96.070 E56.15356
G1 X110.481 Y103.937 E56.45754
G1 X111.574 Y104.119 E56.48781
G1 X103.525 Y96.070 E56.79884
G1 X104.436 Y96.070 E56.82372
G1 X112.566 Y104.200 E57.13789
G1 X113.400 Y104.648 E57.16377
G1 X114.744 Y106.063 E57.21708
G1 X115.041 Y106.675 E57.23568
G1 X116.506 Y108.140 E57.29230
G1 X117.416 Y108.140 E57.31718
G1 X105.346 Y96.070 E57.78361
G1 X106.257 Y96.070 E57.80849
G1 X118.327 Y108.140 E58.27492
G1 X119.237 Y108.140 E58.29980
G1 X107.167 Y96.070 E58.76623
G1 X108.078 Y96.070 E58.79111
G1 X120.148 Y108.140 E59.25754
G1 X121.058 Y108.140 E59.28242
G1 X108.988 Y96.070 E59.74885
G1 X109.899 Y96.070 E59.77373
G1 X121.969 Y108.140 E60.24016
G1 X122.879 Y108.140 E60.26504
G1 X110.809 Y96.070 E60.73147
G1 X111.720 Y96.070 E60.75635
G1 X123.140 Y107.491 E61.19767
G1 X123.140 Y106.580 E61.22255
G1 X112.630 Y96.070 E61.62870
G1 X113.541 Y96.070 E61.65358
G1 X123.140 Y105.670 E62.02453
G1 X123.140 Y104.759 E62.04941
G1 X114.451 Y96.070 E62.38519
G1 X115.362 Y96.070 E62.41007
G1 X123.140 Y103.849 E62.71065
G1 X123.140 Y102.938 E62.73553
G1 X116.272 Y96.070 E63.00094
G1 X117.183 Y96.070 E63.02582
G1 X123.140 Y102.028 E63.25604
G1 X123.140 Y101.117 E63.28092
G1 X118.093 Y96.070 E63.47595
G1 X119.004 Y96.070 E63.50083
G1 X123.140 Y100.207 E63.66068
G1 X123.140 Y99.296 E63.68556
G1 X119.914 Y96.070 E63.81022
G1 X120.825 Y96.070 E63.83510
G1 X123.140 Y98.386 E63.92458
