; generated by Slic3r 1.3.0 on 2020-06-20 at 19:49:46

; external perimeters extrusion width = 0.55mm (4.37mm^3/s)
; perimeters extrusion width = 0.70mm (11.44mm^3/s)
; infill extrusion width = 0.63mm (13.45mm^3/s)
; solid infill extrusion width = 0.70mm (3.81mm^3/s)
; top infill extrusion width = 0.70mm (2.86mm^3/s)

M107
M104 S200 ; set temperature
G28 ; home all axes
G1 Z5 F5000 ; lift nozzle

; Filament gcode

M109 S200 ; set temperature and wait for it to be reached
G21 ; set units to millimeters
G90 ; use absolute coordinates
M82 ; use absolute distances for extrusion
G92 E0
G1 Z0.350 F7800.000
G1 E-2.00000 F2400.00000
G92 E0
G1 X71.668 Y88.274 F7800.000
G1 E2.00000 F2400.00000
G1 F1800
G1 X74.248 Y87.418 E2.08409
G1 X109.248 Y83.418 E3.17409
G1 X111.038 Y83.457 E3.22948
G1 X112.274 Y83.653 E3.26820
G1 X113.001 Y83.810 E3.29123
G1 X126.765 Y87.614 E3.73307
G1 X128.836 Y88.599 E3.80403
G1 X130.448 Y90.231 E3.87499
G1 X131.407 Y92.314 E3.94596
G1 X131.625 Y94.000 E3.99856
G1 X131.625 Y110.000 E4.49362
G1 X131.228 Y112.259 E4.56458
G1 X130.085 Y114.247 E4.63555
G1 X128.332 Y115.726 E4.70651
G1 X126.180 Y116.519 E4.77747
G1 X125.000 Y116.625 E4.81412
G1 X75.000 Y116.625 E6.36119
G1 X72.741 Y116.228 E6.43215
G1 X70.753 Y115.085 E6.50311
G1 X69.274 Y113.332 E6.57407
G1 X68.481 Y111.180 E6.64504
G1 X68.375 Y110.000 E6.68169
G1 X68.375 Y94.000 E7.17675
G1 X68.772 Y91.741 E7.24771
G1 X69.915 Y89.753 E7.31867
G1 X71.611 Y88.322 E7.38731
G1 E5.38731 F2400.00000
G92 E0
G1 X112.634 Y95.600 F7800.000
G1 E2.00000 F2400.00000
G1 F1800
G1 X123.400 Y95.600 E2.33312
G1 X123.400 Y96.631 E2.36502
G1 X123.262 Y96.653 E2.36935
G1 X121.695 Y97.452 E2.42378
G1 X120.452 Y98.695 E2.47818
G1 X119.652 Y100.263 E2.53263
G1 X119.378 Y102.000 E2.58705
G1 X119.652 Y103.737 E2.64146
G1 X120.452 Y105.305 E2.69592
G1 X121.695 Y106.548 E2.75031
G1 X123.263 Y107.348 E2.80477
G1 X123.400 Y107.369 E2.80908
G1 X123.400 Y108.400 E2.84097
G1 X95.369 Y108.400 E3.70829
G1 X95.347 Y108.262 E3.71261
G1 X94.548 Y106.695 E3.76705
G1 X93.305 Y105.452 E3.82144
G1 X91.738 Y104.653 E3.87588
G1 X90.000 Y104.377 E3.93032
G1 X88.262 Y104.653 E3.98476
G1 X86.695 Y105.452 E4.03920
G1 X85.452 Y106.695 E4.09359
G1 X84.652 Y108.263 E4.14805
G1 X84.631 Y108.400 E4.15235
G1 X76.600 Y108.400 E4.40084
G1 X76.600 Y95.600 E4.79690
G1 X107.366 Y95.600 E5.74885
G1 X107.736 Y93.265 E5.82201
G1 X108.074 Y92.601 E5.84505
G1 X108.601 Y92.074 E5.86809
G1 X109.265 Y91.736 E5.89113
G1 X110.000 Y91.620 E5.91417
G1 X110.735 Y91.736 E5.93721
G1 X111.399 Y92.074 E5.96026
G1 X111.926 Y92.601 E5.98330
G1 X112.264 Y93.265 E6.00634
G1 X112.622 Y95.526 E6.07718
G1 X113.168 Y94.975 F7800.000
G1 F1800
G1 X124.025 Y94.975 E6.41312
G1 X124.025 Y97.164 E6.48087
G1 X123.458 Y97.254 E6.49864
G1 X122.067 Y97.964 E6.54696
G1 X120.964 Y99.067 E6.59523
G1 X120.254 Y100.458 E6.64355
G1 X120.011 Y102.000 E6.69185
G1 X120.254 Y103.542 E6.74014
G1 X120.964 Y104.933 E6.78847
G1 X122.067 Y106.036 E6.83674
G1 X123.458 Y106.746 E6.88507
G1 X124.025 Y106.835 E6.90283
G1 X124.025 Y109.025 E6.97058
G1 X94.836 Y109.025 E7.87375
G1 X94.746 Y108.458 E7.89152
G1 X94.036 Y107.067 E7.93983
G1 X92.933 Y105.964 E7.98811
G1 X91.542 Y105.254 E8.03642
G1 X90.000 Y105.010 E8.08473
G1 X88.458 Y105.254 E8.13304
G1 X87.067 Y105.964 E8.18136
G1 X85.964 Y107.067 E8.22963
G1 X85.254 Y108.458 E8.27796
G1 X85.165 Y109.025 E8.29571
G1 X75.975 Y109.025 E8.58006
G1 X75.975 Y94.975 E9.01479
G1 X106.832 Y94.975 E9.96957
G1 X107.135 Y93.069 E10.02927
G1 X107.563 Y92.229 E10.05844
G1 X108.229 Y91.563 E10.08761
G1 X109.069 Y91.135 E10.11677
G1 X110.000 Y90.987 E10.14594
G1 X110.931 Y91.135 E10.17510
G1 X111.771 Y91.563 E10.20427
G1 X112.437 Y92.229 E10.23344
G1 X112.865 Y93.069 E10.26260
G1 X113.156 Y94.901 E10.31999
G1 X113.701 Y94.350 F7800.000
G1 F1800
G1 X124.650 Y94.350 E10.65876
G1 X124.650 Y97.698 E10.76235
G1 X123.653 Y97.856 E10.79357
G1 X122.439 Y98.475 E10.83576
G1 X121.475 Y99.439 E10.87792
G1 X120.856 Y100.654 E10.92011
G1 X120.644 Y102.000 E10.96228
G1 X120.856 Y103.346 E11.00446
G1 X121.475 Y104.561 E11.04665
G1 X122.439 Y105.525 E11.08881
G1 X123.654 Y106.144 E11.13100
G1 X124.650 Y106.301 E11.16221
G1 X124.650 Y109.650 E11.26583
G1 X94.302 Y109.650 E12.20484
G1 X94.144 Y108.653 E12.23606
G1 X93.525 Y107.439 E12.27825
G1 X92.561 Y106.475 E12.32040
G1 X91.347 Y105.856 E12.36259
G1 X90.000 Y105.643 E12.40478
G1 X88.653 Y105.856 E12.44696
G1 X87.439 Y106.475 E12.48915
G1 X86.475 Y107.439 E12.53130
G1 X85.856 Y108.654 E12.57350
G1 X85.699 Y109.650 E12.60471
G1 X75.350 Y109.650 E12.92492
G1 X75.350 Y94.350 E13.39832
G1 X106.299 Y94.350 E14.35592
G1 X106.533 Y92.874 E14.40217
G1 X107.051 Y91.857 E14.43746
G1 X107.857 Y91.051 E14.47276
G1 X108.874 Y90.533 E14.50804
G1 X110.000 Y90.354 E14.54333
G1 X111.126 Y90.533 E14.57862
G1 X112.143 Y91.051 E14.61391
G1 X112.949 Y91.857 E14.64921
G1 X113.467 Y92.874 E14.68450
G1 X113.689 Y94.276 E14.72843
G1 X113.750 Y94.848 F7800.000
G1 E12.72843 F2400.00000
G92 E0
G1 X109.914 Y92.062 F7800.000
G1 E2.00000 F2400.00000
G1 F1800
G1 X108.062 Y93.914 E2.08175
G1 X107.894 Y94.973 E2.11523
G1 X110.773 Y92.093 E2.24233
G1 X111.270 Y92.343 E2.25969
G1 X111.343 Y92.416 E2.26288
G1 X107.726 Y96.033 E2.42253
G1 E0.42253 F2400.00000
G92 E0
G1 X122.039 Y95.982 F7800.000
G1 E2.00000 F2400.00000
G1 F1800
G1 X122.931 Y95.982 E2.02782
G1 X122.405 Y96.507 E2.05102
G1 E0.05102 F2400.00000
G92 E0
G1 X122.483 Y108.018 F7800.000
G1 E2.00000 F2400.00000
G1 F1800
G1 X122.969 Y107.532 E2.02146
G1 X122.378 Y107.231 E2.04214
G1 X121.591 Y108.018 E2.07688
G1 X120.700 Y108.018 E2.10471
G1 X121.788 Y106.930 E2.15274
G1 X121.566 Y106.817 E2.16052
G1 X121.288 Y106.539 E2.17279
G1 X119.808 Y108.018 E2.23809
G1 X118.917 Y108.018 E2.26591
G1 X120.842 Y106.093 E2.35089
G1 X120.396 Y105.648 E2.37056
G1 X118.026 Y108.018 E2.47521
G1 X117.134 Y108.018 E2.50303
G1 X120.026 Y105.126 E2.63068
G1 X119.725 Y104.536 E2.65136
G1 X116.243 Y108.018 E2.80507
G1 X115.351 Y108.018 E2.83289
G1 X119.424 Y103.946 E3.01266
G1 X119.294 Y103.690 E3.02163
G1 X119.225 Y103.253 E3.03541
G1 X114.460 Y108.018 E3.24573
G1 X113.568 Y108.018 E3.27356
G1 X119.103 Y102.483 E3.51786
G1 X118.989 Y101.757 E3.54082
G1 X118.998 Y101.697 E3.54271
G1 X112.677 Y108.018 E3.82173
G1 X111.786 Y108.018 E3.84955
G1 X119.165 Y100.639 E4.17528
G1 X119.294 Y99.824 E4.20101
G1 X119.507 Y99.405 E4.21570
G1 X110.894 Y108.018 E4.59587
G1 X110.003 Y108.018 E4.62369
G1 X122.039 Y95.982 E5.15499
G1 X121.148 Y95.982 E5.18281
G1 X109.111 Y108.018 E5.71410
G1 X108.220 Y108.018 E5.74192
G1 X120.257 Y95.982 E6.27322
G1 X119.365 Y95.982 E6.30104
G1 X107.328 Y108.018 E6.83233
G1 X106.437 Y108.018 E6.86015
G1 X118.474 Y95.982 E7.39145
G1 X117.582 Y95.982 E7.41927
G1 X105.546 Y108.018 E7.95056
G1 X104.654 Y108.018 E7.97838
G1 X116.691 Y95.982 E8.50968
G1 X115.799 Y95.982 E8.53750
G1 X103.763 Y108.018 E9.06879
G1 X102.871 Y108.018 E9.09661
G1 X114.908 Y95.982 E9.62791
G1 X114.017 Y95.982 E9.65573
G1 X101.980 Y108.018 E10.18702
G1 X101.088 Y108.018 E10.21485
G1 X113.125 Y95.982 E10.74614
G1 X112.343 Y95.982 E10.77054
G1 X112.328 Y95.887 E10.77353
G1 X100.197 Y108.018 E11.30900
G1 X99.306 Y108.018 E11.33682
G1 X112.206 Y95.118 E11.90625
G1 X112.084 Y94.348 E11.93057
G1 X98.414 Y108.018 E12.53396
G1 X97.523 Y108.018 E12.56178
G1 X111.962 Y93.579 E13.19914
G1 X111.905 Y93.217 E13.21056
G1 X111.746 Y92.904 E13.22153
G1 X96.631 Y108.018 E13.88866
G1 X95.740 Y108.018 E13.91648
G1 X107.777 Y95.982 E14.44778
G1 X106.885 Y95.982 E14.47560
G1 X95.318 Y107.549 E14.98616
G1 X95.017 Y106.958 E15.00684
G1 X105.994 Y95.982 E15.49134
G1 X105.102 Y95.982 E15.51917
G1 X94.667 Y106.416 E15.97975
G1 X94.222 Y105.971 E15.99942
G1 X104.211 Y95.982 E16.44033
G1 X103.319 Y95.982 E16.46815
G1 X93.776 Y105.525 E16.88939
G1 X93.434 Y105.183 E16.90448
G1 X93.297 Y105.113 E16.90930
G1 X102.428 Y95.982 E17.31235
G1 X101.537 Y95.982 E17.34017
G1 X92.706 Y104.812 E17.72993
G1 X92.116 Y104.511 E17.75062
G1 X100.645 Y95.982 E18.12709
G1 X99.754 Y95.982 E18.15491
G1 X91.475 Y104.260 E18.52031
G1 X90.706 Y104.138 E18.54463
G1 X98.862 Y95.982 E18.90464
G1 X97.971 Y95.982 E18.93246
G1 X89.936 Y104.016 E19.28710
G1 X89.757 Y103.988 E19.29277
G1 X88.945 Y104.116 E19.31844
G1 X97.079 Y95.982 E19.67750
G1 X96.188 Y95.982 E19.70532
G1 X87.885 Y104.284 E20.07179
G1 X87.824 Y104.294 E20.07374
G1 X86.111 Y105.167 E20.13374
G1 X95.296 Y95.982 E20.53918
G1 X94.405 Y95.982 E20.56700
G1 X82.368 Y108.018 E21.09830
G1 X81.477 Y108.018 E21.12612
G1 X93.514 Y95.982 E21.65741
G1 X92.622 Y95.982 E21.68523
G1 X80.585 Y108.018 E22.21653
G1 X79.694 Y108.018 E22.24435
G1 X91.731 Y95.982 E22.77564
G1 X90.839 Y95.982 E22.80346
G1 X78.803 Y108.018 E23.33476
G1 X77.911 Y108.018 E23.36258
G1 X89.948 Y95.982 E23.89387
G1 X89.056 Y95.982 E23.92169
G1 X77.020 Y108.018 E24.45299
G1 X76.982 Y108.018 E24.45417
G1 X76.982 Y107.165 E24.48081
G1 X88.165 Y95.982 E24.97444
G1 X87.274 Y95.982 E25.00226
G1 X76.982 Y106.274 E25.45654
G1 X76.982 Y105.382 E25.48436
G1 X86.382 Y95.982 E25.89929
G1 X85.491 Y95.982 E25.92711
G1 X76.982 Y104.491 E26.30270
G1 X76.982 Y103.599 E26.33052
G1 X84.599 Y95.982 E26.66676
G1 X83.708 Y95.982 E26.69458
G1 X76.982 Y102.708 E26.99147
G1 X76.982 Y101.816 E27.01930
G1 X82.816 Y95.982 E27.27684
G1 X81.925 Y95.982 E27.30466
G1 X76.982 Y100.925 E27.52286
G1 X76.982 Y100.034 E27.55068
G1 X81.034 Y95.982 E27.72953
G1 X80.142 Y95.982 E27.75735
G1 X76.982 Y99.142 E27.89686
G1 X76.982 Y98.251 E27.92468
G1 X79.251 Y95.982 E28.02484
G1 X78.359 Y95.982 E28.05266
G1 X76.982 Y97.359 E28.11347
G1 X76.982 Y96.468 E28.14129
G1 X77.468 Y95.982 E28.16275
G1 E26.16275 F2400.00000
G92 E0
G1 X83.746 Y107.532 F7800.000
G1 E2.00000 F2400.00000
G1 F1800
G1 X84.442 Y107.532 E2.02174
G1 X85.167 Y106.111 E2.07154
G1 X83.260 Y108.018 E2.15573
G1 Z0.650 F7800.000
G1 X112.744 Y95.471 F7800.000
G1 F3600
G1 X123.529 Y95.471 E2.44668
G1 X123.529 Y96.741 E2.48092
G1 X123.302 Y96.776 E2.48710
G1 X121.771 Y97.557 E2.53346
G1 X120.557 Y98.771 E2.57979
G1 X119.776 Y100.303 E2.62617
G1 X119.509 Y102.000 E2.67251
G1 X119.776 Y103.697 E2.71886
G1 X120.557 Y105.229 E2.76524
G1 X121.771 Y106.443 E2.81156
G1 X123.303 Y107.224 E2.85794
G1 X123.529 Y107.259 E2.86411
G1 X123.529 Y108.529 E2.89835
G1 X95.259 Y108.529 E3.66096
G1 X95.224 Y108.302 E3.66714
G1 X94.443 Y106.771 E3.71350
G1 X93.229 Y105.557 E3.75983
G1 X91.698 Y104.776 E3.80619
G1 X90.000 Y104.507 E3.85256
G1 X88.302 Y104.776 E3.89892
G1 X86.771 Y105.557 E3.94528
G1 X85.557 Y106.771 E3.99161
G1 X84.776 Y108.303 E4.03799
G1 X84.741 Y108.529 E4.04416
G1 X76.471 Y108.529 E4.26723
G1 X76.471 Y95.471 E4.61948
G1 X107.256 Y95.471 E5.44995
G1 X107.613 Y93.224 E5.51132
G1 X107.969 Y92.525 E5.53251
G1 X108.525 Y91.969 E5.55370
G1 X109.224 Y91.613 E5.57489
G1 X110.000 Y91.490 E5.59607
G1 X110.776 Y91.613 E5.61726
G1 X111.475 Y91.969 E5.63845
G1 X112.031 Y92.525 E5.65963
G1 X112.387 Y93.224 E5.68082
G1 X112.732 Y95.397 E5.74017
G1 X113.286 Y94.836 F7800.000
G1 F3600
G1 X124.164 Y94.836 E6.03362
G1 X124.164 Y97.283 E6.09965
G1 X123.501 Y97.388 E6.11776
G1 X122.150 Y98.078 E6.15869
G1 X121.078 Y99.150 E6.19959
G1 X120.388 Y100.502 E6.24053
G1 X120.152 Y102.000 E6.28145
G1 X120.388 Y103.498 E6.32237
G1 X121.078 Y104.850 E6.36331
G1 X122.150 Y105.922 E6.40421
G1 X123.502 Y106.612 E6.44515
G1 X124.164 Y106.716 E6.46324
G1 X124.164 Y109.164 E6.52929
G1 X94.717 Y109.164 E7.32368
G1 X94.612 Y108.501 E7.34179
G1 X93.922 Y107.150 E7.38273
G1 X92.850 Y106.078 E7.42362
G1 X91.499 Y105.388 E7.46456
G1 X90.000 Y105.151 E7.50549
G1 X88.501 Y105.388 E7.54642
G1 X87.150 Y106.078 E7.58735
G1 X86.078 Y107.150 E7.62825
G1 X85.388 Y108.502 E7.66919
G1 X85.284 Y109.164 E7.68729
G1 X75.836 Y109.164 E7.94217
G1 X75.836 Y94.836 E8.32871
G1 X106.714 Y94.836 E9.16169
G1 X107.001 Y93.025 E9.21113
G1 X107.448 Y92.146 E9.23775
G1 X108.146 Y91.448 E9.26437
G1 X109.025 Y91.001 E9.29098
G1 X110.000 Y90.846 E9.31760
G1 X110.975 Y91.001 E9.34422
G1 X111.854 Y91.448 E9.37084
G1 X112.552 Y92.146 E9.39746
G1 X112.999 Y93.025 E9.42408
G1 X113.275 Y94.762 E9.47150
G1 X113.765 Y94.275 F7800.000
G1 F1800
G1 X124.725 Y94.275 E9.69738
G1 X124.725 Y97.762 E9.76925
G1 X123.677 Y97.928 E9.79112
G1 X122.483 Y98.537 E9.81874
G1 X121.537 Y99.483 E9.84633
G1 X120.928 Y100.677 E9.87394
G1 X120.720 Y102.000 E9.90155
G1 X120.928 Y103.323 E9.92915
G1 X121.537 Y104.517 E9.95677
G1 X122.483 Y105.463 E9.98435
G1 X123.677 Y106.072 E10.01197
G1 X124.725 Y106.237 E10.03384
G1 X124.725 Y109.725 E10.10572
G1 X94.238 Y109.725 E10.73407
G1 X94.072 Y108.677 E10.75595
G1 X93.463 Y107.483 E10.78356
G1 X92.517 Y106.537 E10.81115
G1 X91.323 Y105.928 E10.83876
G1 X90.000 Y105.719 E10.86637
G1 X88.677 Y105.928 E10.89398
G1 X87.483 Y106.537 E10.92159
G1 X86.537 Y107.483 E10.94918
G1 X85.928 Y108.677 E10.97680
G1 X85.763 Y109.725 E10.99866
G1 X75.275 Y109.725 E11.21482
G1 X75.275 Y94.275 E11.53325
G1 X106.235 Y94.275 E12.17135
G1 X106.461 Y92.850 E12.20108
G1 X106.989 Y91.813 E12.22508
G1 X107.813 Y90.989 E12.24908
G1 X108.850 Y90.461 E12.27307
G1 X110.000 Y90.278 E12.29707
G1 X111.150 Y90.461 E12.32107
G1 X112.187 Y90.989 E12.34506
G1 X113.011 Y91.813 E12.36906
G1 X113.539 Y92.850 E12.39306
G1 X113.753 Y94.201 E12.42125
G1 X113.815 Y94.773 F7800.000
G1 X112.088 Y94.081 F7800.000
G1 F1200
G1 X109.919 Y91.912 E12.50443
G1 X109.753 Y91.886 E12.50898
G1 X109.176 Y91.977 E12.52482
G1 X109.113 Y92.010 E12.52675
G1 X112.258 Y95.155 E12.64738
G1 X112.428 Y96.229 E12.67686
G1 X108.549 Y92.349 E12.82564
G1 X108.243 Y92.656 E12.83738
G1 X108.144 Y92.849 E12.84326
G1 X122.493 Y96.354 F7800.000
G1 F1200
G1 X121.998 Y95.860 E12.86222
G1 X121.094 Y95.860 E12.88672
G1 X122.222 Y96.987 E12.92996
G1 X121.628 Y97.296 E12.94813
G1 X120.191 Y95.860 E13.00322
G1 X119.287 Y95.860 E13.02772
G1 X121.176 Y97.748 E13.10014
G1 X120.724 Y98.200 E13.11747
G1 X118.384 Y95.860 E13.20721
G1 X117.480 Y95.860 E13.23171
G1 X120.276 Y98.655 E13.33893
G1 X119.971 Y99.254 E13.35714
G1 X116.577 Y95.860 E13.48730
G1 X115.673 Y95.860 E13.51181
G1 X119.666 Y99.852 E13.66492
G1 X119.411 Y100.351 E13.68011
G1 X119.391 Y100.481 E13.68366
G1 X114.770 Y95.860 E13.86088
G1 X113.866 Y95.860 E13.88539
G1 X119.268 Y101.261 E14.09254
G1 X119.145 Y102.042 E14.11396
G1 X112.962 Y95.860 E14.35105
G1 X112.059 Y95.860 E14.37555
G1 X119.237 Y103.038 E14.65082
G1 X119.406 Y104.110 E14.68027
G1 X108.144 Y92.849 E15.11214
G1 X107.977 Y93.176 E15.12211
G1 X107.921 Y93.529 E15.13181
G1 X122.497 Y108.105 E15.69075
G1 X122.493 Y108.140 E15.69172
G1 X121.629 Y108.140 E15.71514
G1 X107.798 Y94.309 E16.24555
G1 X107.674 Y95.089 E16.26696
G1 X120.725 Y108.140 E16.76746
G1 X119.822 Y108.140 E16.79196
G1 X107.541 Y95.860 E17.26291
G1 X106.637 Y95.860 E17.28741
G1 X118.918 Y108.140 E17.75835
G1 X118.015 Y108.140 E17.78286
G1 X105.734 Y95.860 E18.25380
G1 X104.830 Y95.860 E18.27831
G1 X117.111 Y108.140 E18.74925
G1 X116.207 Y108.140 E18.77376
G1 X103.927 Y95.860 E19.24470
G1 X103.023 Y95.860 E19.26921
G1 X115.304 Y108.140 E19.74015
G1 X114.400 Y108.140 E19.76465
G1 X102.120 Y95.860 E20.23560
G1 X101.216 Y95.860 E20.26010
G1 X113.497 Y108.140 E20.73105
G1 X112.593 Y108.140 E20.75555
G1 X100.312 Y95.860 E21.22650
G1 X99.409 Y95.860 E21.25100
G1 X111.690 Y108.140 E21.72195
G1 X110.786 Y108.140 E21.74645
G1 X98.505 Y95.860 E22.21740
G1 X97.602 Y95.860 E22.24190
G1 X109.883 Y108.140 E22.71285
G1 X108.979 Y108.140 E22.73735
G1 X96.698 Y95.860 E23.20830
G1 X95.795 Y95.860 E23.23280
G1 X108.075 Y108.140 E23.70375
