; generated by Slic3r 1.3.0 on 2020-06-20 at 19:47:20

; external perimeters extrusion width = 0.55mm (4.37mm^3/s)
; perimeters extrusion width = 0.70mm (11.44mm^3/s)
; infill extrusion width = 0.63mm (13.45mm^3/s)
; solid infill extrusion width = 0.70mm (3.81mm^3/s)
; top infill extrusion width = 0.70mm (2.86mm^3/s)

M107
M104 S200 ; set temperature
G28 ; home all axes
G1 Z5 F5000 ; lift nozzle

; Filament gcode

M109 S200 ; set temperature and wait for it to be reached
G21 ; set units to millimeters
G90 ; use absolute coordinates
M82 ; use absolute distances for extrusion
G92 E0
G1 Z0.350 F7800.000
G1 E-2.00000 F2400.00000
G92 E0
G1 X39.354 Y50.488 F7800.000
G1 E2.00000 F2400.00000
G1 F1800
G1 X42.149 Y48.850 E2.10024
G1 X55.913 Y44.845 E2.54378
G1 X56.675 Y44.671 E2.56795
G1 X57.911 Y44.465 E2.60672
G1 X59.791 Y44.423 E2.66492
G1 X94.791 Y48.634 E3.75568
G1 X96.986 Y49.297 E3.82662
G1 X155.986 Y79.086 E5.87164
G1 X157.823 Y80.459 E5.94261
G1 X159.338 Y83.071 E6.03604
G1 X166.338 Y106.071 E6.77992
G1 X166.625 Y108.000 E6.84026
G1 X166.625 Y124.000 E7.33532
G1 X166.228 Y126.259 E7.40628
G1 X165.085 Y128.247 E7.47725
G1 X163.779 Y129.441 E7.53200
G1 X127.779 Y154.441 E8.88814
G1 X125.697 Y155.404 E8.95910
G1 X124.000 Y155.625 E9.01205
G1 X47.000 Y155.625 E11.39453
G1 X44.741 Y155.228 E11.46549
G1 X42.753 Y154.085 E11.53646
G1 X41.274 Y152.332 E11.60742
G1 X40.485 Y150.200 E11.67775
G1 X33.485 Y112.200 E12.87330
G1 X33.375 Y111.000 E12.91059
G1 X33.375 Y96.000 E13.37471
G1 X33.407 Y95.353 E13.39474
G1 X37.407 Y54.564 E14.66286
G1 X38.022 Y52.355 E14.73382
G1 X39.311 Y50.549 E14.80247
G1 E12.80247 F2400.00000
G92 E0
G1 X95.600 Y135.600 F7800.000
G1 E2.00000 F2400.00000
G1 F1800
G1 X122.400 Y135.600 E2.82924
G1 X122.400 Y147.400 E3.19436
G1 X114.369 Y147.400 E3.44285
G1 X114.347 Y147.262 E3.44717
G1 X113.548 Y145.695 E3.50161
G1 X112.305 Y144.452 E3.55600
G1 X110.737 Y143.652 E3.61046
G1 X109.000 Y143.378 E3.66488
G1 X107.263 Y143.652 E3.71929
G1 X105.695 Y144.452 E3.77375
G1 X104.452 Y145.695 E3.82814
G1 X103.652 Y147.263 E3.88260
G1 X103.631 Y147.400 E3.88690
G1 X95.600 Y147.400 E4.13539
G1 X95.600 Y135.675 E4.49819
G1 X94.975 Y134.975 F7800.000
G1 F1800
G1 X123.025 Y134.975 E5.36610
G1 X123.025 Y148.025 E5.76989
G1 X113.836 Y148.025 E6.05423
G1 X113.746 Y147.458 E6.07200
G1 X113.036 Y146.067 E6.12031
G1 X111.933 Y144.964 E6.16859
G1 X110.542 Y144.254 E6.21691
G1 X109.000 Y144.011 E6.26521
G1 X107.458 Y144.254 E6.31350
G1 X106.067 Y144.964 E6.36183
G1 X104.964 Y146.067 E6.41010
G1 X104.254 Y147.458 E6.45843
G1 X104.165 Y148.025 E6.47619
G1 X94.975 Y148.025 E6.76053
G1 X94.975 Y135.050 E7.16200
G1 X94.350 Y134.350 F7800.000
G1 F1800
G1 X123.650 Y134.350 E8.06858
G1 X123.650 Y148.650 E8.51104
G1 X113.302 Y148.650 E8.83123
G1 X113.144 Y147.653 E8.86245
G1 X112.525 Y146.439 E8.90464
G1 X111.561 Y145.475 E8.94679
G1 X110.346 Y144.856 E8.98898
G1 X109.000 Y144.644 E9.03116
G1 X107.654 Y144.856 E9.07333
G1 X106.439 Y145.475 E9.11553
G1 X105.475 Y146.439 E9.15768
G1 X104.856 Y147.654 E9.19988
G1 X104.699 Y148.650 E9.23109
G1 X94.350 Y148.650 E9.55129
G1 X94.350 Y134.425 E9.99144
G1 X94.825 Y134.505 F7800.000
G1 E7.99144 F2400.00000
G92 E0
G1 X96.468 Y135.982 F7800.000
G1 E2.00000 F2400.00000
G1 F1800
G1 X95.982 Y136.468 E2.02173
G1 X95.982 Y137.370 E2.05025
G1 X97.370 Y135.982 E2.11231
G1 X98.273 Y135.982 E2.14083
G1 X95.982 Y138.273 E2.24322
G1 X95.982 Y139.175 E2.27174
G1 X99.175 Y135.982 E2.41447
G1 X100.078 Y135.982 E2.44299
G1 X95.982 Y140.078 E2.62605
G1 X95.982 Y140.980 E2.65457
G1 X100.981 Y135.982 E2.87796
G1 X101.883 Y135.982 E2.90648
G1 X95.982 Y141.883 E3.17021
G1 X95.982 Y142.786 E3.19873
G1 X102.786 Y135.982 E3.50278
G1 X103.688 Y135.982 E3.53130
G1 X95.982 Y143.688 E3.87569
G1 X95.982 Y144.591 E3.90421
G1 X104.591 Y135.982 E4.28894
G1 X105.493 Y135.982 E4.31746
G1 X95.982 Y145.493 E4.74251
G1 X95.982 Y146.396 E4.77103
G1 X106.396 Y135.982 E5.23642
G1 X107.298 Y135.982 E5.26494
G1 X96.261 Y147.018 E5.75815
G1 X97.164 Y147.018 E5.78667
G1 X108.201 Y135.982 E6.27989
G1 X109.103 Y135.982 E6.30841
G1 X98.066 Y147.018 E6.80163
G1 X98.969 Y147.018 E6.83014
G1 X110.006 Y135.982 E7.32336
G1 X110.908 Y135.982 E7.35188
G1 X99.872 Y147.018 E7.84510
G1 X100.774 Y147.018 E7.87362
G1 X111.811 Y135.982 E8.36683
G1 X112.713 Y135.982 E8.39535
G1 X101.677 Y147.018 E8.88857
G1 X102.579 Y147.018 E8.91709
G1 X103.349 Y146.249 E8.95149
G1 X103.697 Y145.566 E8.97570
G1 X105.080 Y144.183 E9.03750
G1 X105.763 Y143.835 E9.06172
G1 X113.616 Y135.982 E9.41267
G1 X114.518 Y135.982 E9.44119
G1 X107.278 Y143.222 E9.76475
G1 X108.349 Y143.053 E9.79903
G1 X115.421 Y135.982 E10.11505
G1 X116.323 Y135.982 E10.14356
G1 X109.240 Y143.065 E10.46011
G1 X110.020 Y143.188 E10.48505
G1 X117.226 Y135.982 E10.80709
G1 X118.129 Y135.982 E10.83561
G1 X110.774 Y143.336 E11.16429
G1 X111.371 Y143.641 E11.18549
G1 X119.031 Y135.982 E11.52779
G1 X119.934 Y135.982 E11.55631
G1 X111.969 Y143.946 E11.91222
G1 X112.434 Y144.183 E11.92871
G1 X112.534 Y144.283 E11.93319
G1 X120.836 Y135.982 E12.30419
G1 X121.739 Y135.982 E12.33271
G1 X112.986 Y144.735 E12.72386
G1 X113.437 Y145.186 E12.74403
G1 X122.018 Y136.604 E13.12752
G1 X122.018 Y137.507 E13.15604
G1 X113.865 Y145.660 E13.52040
G1 X114.170 Y146.258 E13.54160
G1 X122.018 Y138.409 E13.89234
G1 X122.018 Y139.312 E13.92086
G1 X114.475 Y146.856 E14.25798
G1 X114.558 Y147.018 E14.26375
G1 X115.214 Y147.018 E14.28451
G1 X122.018 Y140.215 E14.58857
G1 X122.018 Y141.117 E14.61708
G1 X116.117 Y147.018 E14.88081
G1 X117.020 Y147.018 E14.90933
G1 X122.018 Y142.020 E15.13272
G1 X122.018 Y142.922 E15.16124
G1 X117.922 Y147.018 E15.34429
G1 X118.825 Y147.018 E15.37281
G1 X122.018 Y143.825 E15.51554
G1 X122.018 Y144.727 E15.54406
G1 X119.727 Y147.018 E15.64645
G1 X120.630 Y147.018 E15.67497
G1 X122.018 Y145.630 E15.73703
G1 X122.018 Y146.532 E15.76555
G1 X121.532 Y147.018 E15.78728
G1 E13.78728 F2400.00000
G92 E0
G1 X64.634 Y135.600 F7800.000
G1 E2.00000 F2400.00000
G1 F1800
G1 X75.400 Y135.600 E2.33312
G1 X75.400 Y147.400 E2.69824
G1 X48.600 Y147.400 E3.52749
G1 X48.600 Y135.600 E3.89261
G1 X59.366 Y135.600 E4.22573
G1 X59.736 Y133.265 E4.29889
G1 X60.074 Y132.601 E4.32193
G1 X60.601 Y132.074 E4.34497
G1 X61.265 Y131.736 E4.36801
G1 X62.000 Y131.620 E4.39105
G1 X62.735 Y131.736 E4.41409
G1 X63.399 Y132.074 E4.43714
G1 X63.926 Y132.601 E4.46018
G1 X64.264 Y133.265 E4.48322
G1 X64.622 Y135.526 E4.55406
G1 X65.168 Y134.975 F7800.000
G1 F1800
G1 X76.025 Y134.975 E4.89000
G1 X76.025 Y148.025 E5.29380
G1 X47.975 Y148.025 E6.16171
G1 X47.975 Y134.975 E6.56550
G1 X58.832 Y134.975 E6.90145
G1 X59.135 Y133.069 E6.96115
G1 X59.563 Y132.229 E6.99032
G1 X60.229 Y131.563 E7.01948
G1 X61.069 Y131.135 E7.04865
G1 X62.000 Y130.987 E7.07782
G1 X62.931 Y131.135 E7.10698
G1 X63.771 Y131.563 E7.13615
G1 X64.437 Y132.229 E7.16531
G1 X64.865 Y133.069 E7.19448
G1 X65.156 Y134.901 E7.25186
G1 X65.701 Y134.350 F7800.000
G1 F1800
G1 X76.650 Y134.350 E7.59064
G1 X76.650 Y148.650 E8.03310
G1 X47.350 Y148.650 E8.93968
G1 X47.350 Y134.350 E9.38214
G1 X58.299 Y134.350 E9.72091
G1 X58.533 Y132.874 E9.76717
G1 X59.051 Y131.857 E9.80246
G1 X59.857 Y131.051 E9.83775
G1 X60.874 Y130.533 E9.87304
G1 X62.000 Y130.354 E9.90833
G1 X63.126 Y130.533 E9.94362
G1 X64.143 Y131.051 E9.97891
G1 X64.949 Y131.857 E10.01420
G1 X65.467 Y132.874 E10.04949
G1 X65.689 Y134.276 E10.09342
G1 X65.750 Y134.848 F7800.000
G1 E8.09342 F2400.00000
G92 E0
G1 X60.757 Y132.816 F7800.000
G1 E2.00000 F2400.00000
G1 F1800
G1 X60.330 Y133.243 E2.01908
G1 X61.243 Y132.330 E2.05988
G1 X61.703 Y132.095 E2.07621
G1 X62.243 Y132.009 E2.09348
G1 X62.435 Y132.040 E2.09962
G1 X59.968 Y134.507 E2.20989
G1 X59.797 Y135.580 E2.24420
G1 X63.114 Y132.264 E2.39241
G1 X63.270 Y132.343 E2.39795
G1 X63.603 Y132.676 E2.41284
G1 X49.261 Y147.018 E3.05376
G1 X50.164 Y147.018 E3.08228
G1 X63.913 Y133.269 E3.69672
G1 X64.037 Y134.048 E3.72164
G1 X51.066 Y147.018 E4.30126
G1 X51.969 Y147.018 E4.32978
G1 X64.160 Y134.827 E4.87459
G1 X64.284 Y135.606 E4.89951
G1 X52.872 Y147.018 E5.40951
G1 X53.774 Y147.018 E5.43803
G1 X64.811 Y135.982 E5.93125
G1 X65.713 Y135.982 E5.95977
G1 X54.677 Y147.018 E6.45298
G1 X55.579 Y147.018 E6.48150
G1 X66.616 Y135.982 E6.97472
G1 X67.518 Y135.982 E7.00324
G1 X56.482 Y147.018 E7.49645
G1 X57.384 Y147.018 E7.52497
G1 X68.421 Y135.982 E8.01819
G1 X69.323 Y135.982 E8.04671
G1 X58.287 Y147.018 E8.53993
G1 X59.189 Y147.018 E8.56845
G1 X70.226 Y135.982 E9.06166
G1 X71.129 Y135.982 E9.09018
G1 X60.092 Y147.018 E9.58340
G1 X60.994 Y147.018 E9.61192
G1 X72.031 Y135.982 E10.10513
G1 X72.934 Y135.982 E10.13365
G1 X61.897 Y147.018 E10.62687
G1 X62.799 Y147.018 E10.65539
G1 X73.836 Y135.982 E11.14860
G1 X74.739 Y135.982 E11.17712
G1 X63.702 Y147.018 E11.67034
G1 X64.604 Y147.018 E11.69886
G1 X75.018 Y136.604 E12.16425
G1 X75.018 Y137.507 E12.19276
G1 X65.507 Y147.018 E12.61782
G1 X66.409 Y147.018 E12.64634
G1 X75.018 Y138.409 E13.03106
G1 X75.018 Y139.312 E13.05958
G1 X67.312 Y147.018 E13.40396
G1 X68.215 Y147.018 E13.43248
G1 X75.018 Y140.215 E13.73654
G1 X75.018 Y141.117 E13.76506
G1 X69.117 Y147.018 E14.02878
G1 X70.020 Y147.018 E14.05730
G1 X75.018 Y142.020 E14.28069
G1 X75.018 Y142.922 E14.30921
G1 X70.922 Y147.018 E14.49227
G1 X71.825 Y147.018 E14.52079
G1 X75.018 Y143.825 E14.66351
G1 X75.018 Y144.727 E14.69203
G1 X72.727 Y147.018 E14.79442
G1 X73.630 Y147.018 E14.82294
G1 X75.018 Y145.630 E14.88500
G1 X75.018 Y146.532 E14.91352
G1 X74.532 Y147.018 E14.93525
G1 E12.93525 F2400.00000
G92 E0
G1 X48.982 Y146.396 F7800.000
G1 E2.00000 F2400.00000
G1 F1800
G1 X59.396 Y135.982 E2.46539
G1 X58.493 Y135.982 E2.49391
G1 X48.982 Y145.493 E2.91896
G1 X48.982 Y144.591 E2.94748
G1 X57.591 Y135.982 E3.33220
G1 X56.688 Y135.982 E3.36072
G1 X48.982 Y143.688 E3.70511
G1 X48.982 Y142.786 E3.73363
G1 X55.786 Y135.982 E4.03769
G1 X54.883 Y135.982 E4.06621
G1 X48.982 Y141.883 E4.32994
G1 X48.982 Y140.980 E4.35846
G1 X53.981 Y135.982 E4.58185
G1 X53.078 Y135.982 E4.61037
G1 X48.982 Y140.078 E4.79343
G1 X48.982 Y139.175 E4.82195
G1 X52.175 Y135.982 E4.96467
G1 X51.273 Y135.982 E4.99319
G1 X48.982 Y138.273 E5.09559
G1 X48.982 Y137.370 E5.12411
G1 X50.370 Y135.982 E5.18617
G1 X49.468 Y135.982 E5.21469
G1 X48.982 Y136.468 E5.23641
G1 E3.23641 F2400.00000
G92 E0
G1 X57.634 Y97.600 F7800.000
G1 E2.00000 F2400.00000
G1 F1800
G1 X68.400 Y97.600 E2.33312
G1 X68.400 Y109.400 E2.69824
G1 X60.369 Y109.400 E2.94673
G1 X60.347 Y109.262 E2.95106
G1 X59.548 Y107.695 E3.00549
G1 X58.305 Y106.452 E3.05989
G1 X56.738 Y105.653 E3.11432
G1 X55.000 Y105.377 E3.16876
G1 X53.262 Y105.653 E3.22320
G1 X51.695 Y106.452 E3.27764
G1 X50.452 Y107.695 E3.33203
G1 X49.653 Y109.262 E3.38647
G1 X49.631 Y109.400 E3.39080
G1 X41.600 Y109.400 E3.63928
G1 X41.600 Y97.600 E4.00441
G1 X52.366 Y97.600 E4.33753
G1 X52.736 Y95.265 E4.41069
G1 X53.074 Y94.601 E4.43373
G1 X53.601 Y94.074 E4.45677
G1 X54.265 Y93.736 E4.47981
G1 X55.000 Y93.620 E4.50285
G1 X55.735 Y93.736 E4.52589
G1 X56.399 Y94.074 E4.54893
G1 X56.926 Y94.601 E4.57198
G1 X57.264 Y95.265 E4.59502
G1 X57.622 Y97.526 E4.66585
G1 X58.168 Y96.975 F7800.000
G1 F1800
G1 X69.025 Y96.975 E5.00180
G1 X69.025 Y110.025 E5.40559
G1 X59.836 Y110.025 E5.68993
G1 X59.746 Y109.458 E5.70770
G1 X59.036 Y108.067 E5.75602
G1 X57.933 Y106.964 E5.80429
G1 X56.542 Y106.254 E5.85260
G1 X55.000 Y106.010 E5.90091
G1 X53.458 Y106.254 E5.94923
G1 X52.067 Y106.964 E5.99754
G1 X50.964 Y108.067 E6.04581
G1 X50.254 Y109.458 E6.09413
G1 X50.164 Y110.025 E6.11190
G1 X40.975 Y110.025 E6.39623
G1 X40.975 Y96.975 E6.80002
G1 X51.832 Y96.975 E7.13597
G1 X52.135 Y95.069 E7.19568
G1 X52.563 Y94.229 E7.22484
G1 X53.229 Y93.563 E7.25401
G1 X54.069 Y93.135 E7.28318
G1 X55.000 Y92.987 E7.31234
G1 X55.931 Y93.135 E7.34151
G1 X56.771 Y93.563 E7.37067
G1 X57.437 Y94.229 E7.39984
G1 X57.865 Y95.069 E7.42901
G1 X58.156 Y96.901 E7.48639
G1 X58.701 Y96.350 F7800.000
G1 F1800
G1 X69.650 Y96.350 E7.82516
G1 X69.650 Y110.650 E8.26763
G1 X59.302 Y110.650 E8.58781
G1 X59.144 Y109.653 E8.61903
G1 X58.525 Y108.439 E8.66122
G1 X57.561 Y107.475 E8.70337
G1 X56.347 Y106.856 E8.74556
G1 X55.000 Y106.643 E8.78775
G1 X53.653 Y106.856 E8.82993
G1 X52.439 Y107.475 E8.87212
G1 X51.475 Y108.439 E8.91427
G1 X50.856 Y109.653 E8.95646
G1 X50.698 Y110.650 E8.98768
G1 X40.350 Y110.650 E9.30786
G1 X40.350 Y96.350 E9.75033
G1 X51.299 Y96.350 E10.08910
G1 X51.533 Y94.874 E10.13535
G1 X52.051 Y93.857 E10.17064
G1 X52.857 Y93.051 E10.20594
G1 X53.874 Y92.533 E10.24122
G1 X55.000 Y92.354 E10.27652
G1 X56.126 Y92.533 E10.31181
G1 X57.143 Y93.051 E10.34709
G1 X57.949 Y93.857 E10.38239
G1 X58.467 Y94.874 E10.41768
G1 X58.689 Y96.276 E10.46161
G1 X58.750 Y96.848 F7800.000
G1 E8.46161 F2400.00000
G92 E0
G1 X53.757 Y94.816 F7800.000
G1 E2.00000 F2400.00000
G1 F1800
G1 X53.330 Y95.243 E2.01908
G1 X54.243 Y94.330 E2.05988
G1 X54.703 Y94.095 E2.07621
G1 X55.243 Y94.009 E2.09348
G1 X55.435 Y94.040 E2.09962
G1 X52.968 Y96.507 E2.20989
G1 X52.797 Y97.580 E2.24420
G1 X56.114 Y94.264 E2.39240
G1 X56.270 Y94.343 E2.39795
G1 X56.603 Y94.676 E2.41284
G1 X42.261 Y109.018 E3.05376
G1 X43.164 Y109.018 E3.08228
G1 X56.913 Y95.269 E3.69672
G1 X57.037 Y96.048 E3.72164
G1 X44.066 Y109.018 E4.30126
G1 X44.969 Y109.018 E4.32978
G1 X57.160 Y96.827 E4.87459
G1 X57.284 Y97.606 E4.89951
G1 X45.872 Y109.018 E5.40951
G1 X46.774 Y109.018 E5.43803
G1 X57.811 Y97.982 E5.93125
G1 X58.713 Y97.982 E5.95977
G1 X47.677 Y109.018 E6.45298
G1 X48.579 Y109.018 E6.48150
G1 X49.349 Y108.249 E6.51590
G1 X49.697 Y107.566 E6.54012
G1 X51.080 Y106.183 E6.60192
G1 X51.763 Y105.835 E6.62613
G1 X59.616 Y97.982 E6.97708
G1 X60.518 Y97.982 E7.00560
G1 X53.278 Y105.222 E7.32916
G1 X54.351 Y105.052 E7.36348
G1 X61.421 Y97.982 E7.67944
G1 X62.323 Y97.982 E7.70796
G1 X55.241 Y105.064 E8.02447
G1 X56.020 Y105.188 E8.04940
G1 X63.226 Y97.982 E8.37143
G1 X64.129 Y97.982 E8.39995
G1 X56.774 Y105.336 E8.72863
G1 X57.371 Y105.641 E8.74983
G1 X65.031 Y97.982 E9.09212
G1 X65.934 Y97.982 E9.12064
G1 X57.969 Y105.946 E9.47656
G1 X58.434 Y106.183 E9.49305
G1 X58.534 Y106.283 E9.49753
G1 X66.836 Y97.982 E9.86852
G1 X67.739 Y97.982 E9.89704
G1 X58.986 Y106.735 E10.28820
G1 X59.437 Y107.186 E10.30837
G1 X68.018 Y98.604 E10.69186
G1 X68.018 Y99.507 E10.72038
G1 X59.865 Y107.660 E11.08474
G1 X60.170 Y108.258 E11.10594
G1 X68.018 Y100.409 E11.45668
G1 X68.018 Y101.312 E11.48520
G1 X60.475 Y108.856 E11.82232
G1 X60.558 Y109.018 E11.82809
G1 X61.214 Y109.018 E11.84885
G1 X68.018 Y102.215 E12.15290
G1 X68.018 Y103.117 E12.18142
G1 X62.117 Y109.018 E12.44514
G1 X63.020 Y109.018 E12.47366
G1 X68.018 Y104.020 E12.69705
G1 X68.018 Y104.922 E12.72557
G1 X63.922 Y109.018 E12.90863
G1 X64.825 Y109.018 E12.93715
G1 X68.018 Y105.825 E13.07987
G1 X68.018 Y106.727 E13.10839
G1 X65.727 Y109.018 E13.21079
G1 X66.630 Y109.018 E13.23931
G1 X68.018 Y107.630 E13.30137
G1 X68.018 Y108.532 E13.32988
G1 X67.532 Y109.018 E13.35161
G1 E11.35161 F2400.00000
G92 E0
G1 X41.982 Y108.396 F7800.000
G1 E2.00000 F2400.00000
G1 F1800
G1 X52.396 Y97.982 E2.46539
G1 X51.493 Y97.982 E2.49391
G1 X41.982 Y107.493 E2.91896
G1 X41.982 Y106.591 E2.94748
G1 X50.591 Y97.982 E3.33220
G1 X49.688 Y97.982 E3.36072
G1 X41.982 Y105.688 E3.70511
G1 X41.982 Y104.786 E3.73363
G1 X48.786 Y97.982 E4.03769
G1 X47.883 Y97.982 E4.06621
G1 X41.982 Y103.883 E4.32994
G1 X41.982 Y102.980 E4.35846
G1 X46.980 Y97.982 E4.58185
G1 X46.078 Y97.982 E4.61037
G1 X41.982 Y102.078 E4.79343
G1 X41.982 Y101.175 E4.82195
G1 X45.175 Y97.982 E4.96467
