; generated by Slic3r 1.3.0 on 2020-06-20 at 19:49:29

; external perimeters extrusion width = 0.55mm (4.37mm^3/s)
; perimeters extrusion width = 0.70mm (11.44mm^3/s)
; infill extrusion width = 0.63mm (13.45mm^3/s)
; solid infill extrusion width = 0.70mm (3.81mm^3/s)
; top infill extrusion width = 0.70mm (2.86mm^3/s)

M107
M104 S200 ; set temperature
G28 ; home all axes
G1 Z5 F5000 ; lift nozzle

; Filament gcode

M109 S200 ; set temperature and wait for it to be reached
G21 ; set units to millimeters
G90 ; use absolute coordinates
M82 ; use absolute distances for extrusion
G92 E0
G1 Z0.350 F7800.000
G1 E-2.00000 F2400.00000
G92 E0
G1 X79.915 Y90.253 F7800.000
G1 E2.00000 F2400.00000
G1 F1800
G1 X81.668 Y88.774 E2.07096
G1 X83.235 Y88.114 E2.12357
G1 X96.999 Y84.310 E2.56541
G1 X97.726 Y84.153 E2.58843
G1 X98.962 Y83.957 E2.62715
G1 X101.038 Y83.957 E2.69136
G1 X102.274 Y84.153 E2.73008
G1 X103.001 Y84.310 E2.75311
G1 X116.765 Y88.114 E3.19495
G1 X118.836 Y89.099 E3.26591
G1 X120.448 Y90.731 E3.33687
G1 X121.407 Y92.814 E3.40783
G1 X121.625 Y94.500 E3.46044
G1 X121.625 Y109.500 E3.92456
G1 X121.228 Y111.759 E3.99552
G1 X120.085 Y113.747 E4.06648
G1 X118.332 Y115.226 E4.13744
G1 X116.180 Y116.019 E4.20841
G1 X115.000 Y116.125 E4.24506
G1 X85.000 Y116.125 E5.17330
G1 X82.741 Y115.728 E5.24426
G1 X80.753 Y114.585 E5.31522
G1 X79.274 Y112.832 E5.38618
G1 X78.481 Y110.680 E5.45715
G1 X78.375 Y109.500 E5.49380
G1 X78.375 Y94.500 E5.95792
G1 X78.772 Y92.241 E6.02888
G1 X79.878 Y90.318 E6.09752
G1 E4.09752 F2400.00000
G92 E0
G1 X102.634 Y96.100 F7800.000
G1 E2.00000 F2400.00000
G1 F1800
G1 X113.400 Y96.100 E2.33312
G1 X113.400 Y107.900 E2.69824
G1 X105.369 Y107.900 E2.94673
G1 X105.347 Y107.762 E2.95106
G1 X104.548 Y106.195 E3.00549
G1 X103.305 Y104.952 E3.05989
G1 X101.738 Y104.153 E3.11432
G1 X100.000 Y103.877 E3.16876
G1 X98.262 Y104.153 E3.22320
G1 X96.695 Y104.952 E3.27764
G1 X95.452 Y106.195 E3.33203
G1 X94.653 Y107.762 E3.38647
G1 X94.631 Y107.900 E3.39080
G1 X86.600 Y107.900 E3.63928
G1 X86.600 Y96.100 E4.00441
G1 X97.366 Y96.100 E4.33753
G1 X97.736 Y93.765 E4.41069
G1 X98.074 Y93.101 E4.43373
G1 X98.601 Y92.574 E4.45677
G1 X99.265 Y92.236 E4.47981
G1 X100.000 Y92.120 E4.50285
G1 X100.735 Y92.236 E4.52589
G1 X101.399 Y92.574 E4.54893
G1 X101.926 Y93.101 E4.57198
G1 X102.264 Y93.765 E4.59502
G1 X102.622 Y96.026 E4.66585
G1 X103.168 Y95.475 F7800.000
G1 F1800
G1 X114.025 Y95.475 E5.00180
G1 X114.025 Y108.525 E5.40559
G1 X104.836 Y108.525 E5.68993
G1 X104.746 Y107.958 E5.70770
G1 X104.036 Y106.567 E5.75602
G1 X102.933 Y105.464 E5.80429
G1 X101.542 Y104.754 E5.85260
G1 X100.000 Y104.510 E5.90091
G1 X98.458 Y104.754 E5.94923
G1 X97.067 Y105.464 E5.99754
G1 X95.964 Y106.567 E6.04581
G1 X95.254 Y107.958 E6.09413
G1 X95.164 Y108.525 E6.11190
G1 X85.975 Y108.525 E6.39623
G1 X85.975 Y95.475 E6.80002
G1 X96.832 Y95.475 E7.13597
G1 X97.135 Y93.569 E7.19568
G1 X97.563 Y92.729 E7.22484
G1 X98.229 Y92.063 E7.25401
G1 X99.069 Y91.635 E7.28318
G1 X100.000 Y91.487 E7.31234
G1 X100.931 Y91.635 E7.34151
G1 X101.771 Y92.063 E7.37067
G1 X102.437 Y92.729 E7.39984
G1 X102.865 Y93.569 E7.42901
G1 X103.156 Y95.401 E7.48639
G1 X103.701 Y94.850 F7800.000
G1 F1800
G1 X114.650 Y94.850 E7.82516
G1 X114.650 Y109.150 E8.26763
G1 X104.302 Y109.150 E8.58781
G1 X104.144 Y108.153 E8.61903
G1 X103.525 Y106.939 E8.66122
G1 X102.561 Y105.975 E8.70337
G1 X101.347 Y105.356 E8.74556
G1 X100.000 Y105.143 E8.78775
G1 X98.653 Y105.356 E8.82993
G1 X97.439 Y105.975 E8.87212
G1 X96.475 Y106.939 E8.91427
G1 X95.856 Y108.153 E8.95646
G1 X95.698 Y109.150 E8.98768
G1 X85.350 Y109.150 E9.30787
G1 X85.350 Y94.850 E9.75033
G1 X96.299 Y94.850 E10.08910
G1 X96.533 Y93.374 E10.13535
G1 X97.051 Y92.357 E10.17064
G1 X97.857 Y91.551 E10.20594
G1 X98.874 Y91.033 E10.24123
G1 X100.000 Y90.854 E10.27652
G1 X101.126 Y91.033 E10.31181
G1 X102.143 Y91.551 E10.34709
G1 X102.949 Y92.357 E10.38239
G1 X103.467 Y93.374 E10.41768
G1 X103.689 Y94.776 E10.46161
G1 X103.750 Y95.348 F7800.000
G1 E8.46161 F2400.00000
G92 E0
G1 X98.757 Y93.316 F7800.000
G1 E2.00000 F2400.00000
G1 F1800
G1 X98.330 Y93.743 E2.01908
G1 X99.243 Y92.830 E2.05988
G1 X99.703 Y92.595 E2.07621
G1 X100.243 Y92.509 E2.09348
G1 X100.435 Y92.540 E2.09962
G1 X97.968 Y95.007 E2.20989
G1 X97.797 Y96.080 E2.24420
G1 X101.114 Y92.764 E2.39240
G1 X101.270 Y92.843 E2.39795
G1 X101.603 Y93.176 E2.41284
G1 X87.261 Y107.518 E3.05376
G1 X88.164 Y107.518 E3.08228
G1 X101.913 Y93.769 E3.69672
G1 X102.037 Y94.548 E3.72164
G1 X89.066 Y107.518 E4.30126
G1 X89.969 Y107.518 E4.32978
G1 X102.160 Y95.327 E4.87459
G1 X102.284 Y96.106 E4.89951
G1 X90.872 Y107.518 E5.40951
G1 X91.774 Y107.518 E5.43803
G1 X102.811 Y96.482 E5.93125
G1 X103.713 Y96.482 E5.95977
G1 X92.677 Y107.518 E6.45298
G1 X93.579 Y107.518 E6.48150
G1 X94.349 Y106.749 E6.51590
G1 X94.697 Y106.066 E6.54012
G1 X96.080 Y104.683 E6.60192
G1 X96.763 Y104.335 E6.62613
G1 X104.616 Y96.482 E6.97709
G1 X105.518 Y96.482 E7.00560
G1 X98.278 Y103.722 E7.32916
G1 X99.351 Y103.552 E7.36348
G1 X106.421 Y96.482 E7.67944
G1 X107.323 Y96.482 E7.70796
G1 X100.241 Y103.564 E8.02448
G1 X101.020 Y103.688 E8.04940
G1 X108.226 Y96.482 E8.37143
G1 X109.129 Y96.482 E8.39995
G1 X101.774 Y103.836 E8.72863
G1 X102.371 Y104.141 E8.74983
G1 X110.031 Y96.482 E9.09213
G1 X110.934 Y96.482 E9.12065
G1 X102.969 Y104.446 E9.47656
G1 X103.434 Y104.683 E9.49305
G1 X103.534 Y104.783 E9.49753
G1 X111.836 Y96.482 E9.86852
G1 X112.739 Y96.482 E9.89704
G1 X103.986 Y105.235 E10.28820
G1 X104.437 Y105.686 E10.30837
G1 X113.018 Y97.104 E10.69186
G1 X113.018 Y98.007 E10.72038
G1 X104.865 Y106.160 E11.08474
G1 X105.170 Y106.758 E11.10594
G1 X113.018 Y98.909 E11.45668
G1 X113.018 Y99.812 E11.48520
G1 X105.475 Y107.356 E11.82232
G1 X105.558 Y107.518 E11.82809
G1 X106.214 Y107.518 E11.84885
G1 X113.018 Y100.715 E12.15290
G1 X113.018 Y101.617 E12.18142
G1 X107.117 Y107.518 E12.44515
G1 X108.020 Y107.518 E12.47366
G1 X113.018 Y102.520 E12.69705
G1 X113.018 Y103.422 E12.72557
G1 X108.922 Y107.518 E12.90863
G1 X109.825 Y107.518 E12.93715
G1 X113.018 Y104.325 E13.07988
G1 X113.018 Y105.227 E13.10840
G1 X110.727 Y107.518 E13.21079
G1 X111.630 Y107.518 E13.23931
G1 X113.018 Y106.130 E13.30137
G1 X113.018 Y107.032 E13.32989
G1 X112.532 Y107.518 E13.35161
G1 E11.35161 F2400.00000
G92 E0
G1 X86.982 Y106.896 F7800.000
G1 E2.00000 F2400.00000
G1 F1800
G1 X97.396 Y96.482 E2.46539
G1 X96.493 Y96.482 E2.49391
G1 X86.982 Y105.993 E2.91896
G1 X86.982 Y105.091 E2.94748
G1 X95.591 Y96.482 E3.33220
G1 X94.688 Y96.482 E3.36072
G1 X86.982 Y104.188 E3.70511
G1 X86.982 Y103.286 E3.73363
G1 X93.786 Y96.482 E4.03769
G1 X92.883 Y96.482 E4.06621
G1 X86.982 Y102.383 E4.32994
G1 X86.982 Y101.480 E4.35846
G1 X91.980 Y96.482 E4.58185
G1 X91.078 Y96.482 E4.61037
G1 X86.982 Y100.578 E4.79343
G1 X86.982 Y99.675 E4.82195
G1 X90.175 Y96.482 E4.96467
G1 X89.273 Y96.482 E4.99319
G1 X86.982 Y98.773 E5.09559
G1 X86.982 Y97.870 E5.12411
G1 X88.370 Y96.482 E5.18617
G1 X87.468 Y96.482 E5.21469
G1 X86.982 Y96.968 E5.23641
G1 Z0.650 F7800.000
G1 X102.744 Y95.971 F7800.000
G1 F3600
G1 X113.529 Y95.971 E5.52735
G1 X113.529 Y108.029 E5.85262
G1 X105.259 Y108.029 E6.07570
G1 X105.224 Y107.802 E6.08188
G1 X104.443 Y106.271 E6.12825
G1 X103.229 Y105.057 E6.17457
G1 X101.698 Y104.276 E6.22093
G1 X100.000 Y104.007 E6.26730
G1 X98.302 Y104.276 E6.31366
G1 X96.771 Y105.057 E6.36003
G1 X95.557 Y106.271 E6.40635
G1 X94.776 Y107.802 E6.45272
G1 X94.741 Y108.029 E6.45890
G1 X86.471 Y108.029 E6.68197
G1 X86.471 Y95.971 E7.00725
G1 X97.256 Y95.971 E7.29819
G1 X97.613 Y93.724 E7.35956
G1 X97.969 Y93.025 E7.38075
G1 X98.525 Y92.469 E7.40194
G1 X99.224 Y92.113 E7.42312
G1 X100.000 Y91.990 E7.44431
G1 X100.776 Y92.113 E7.46549
G1 X101.475 Y92.469 E7.48668
G1 X102.031 Y93.025 E7.50787
G1 X102.387 Y93.724 E7.52906
G1 X102.732 Y95.897 E7.58841
G1 X103.286 Y95.336 F7800.000
G1 F3600
G1 X114.164 Y95.336 E7.88185
G1 X114.164 Y108.664 E8.24142
G1 X104.717 Y108.664 E8.49629
G1 X104.612 Y108.001 E8.51439
G1 X103.922 Y106.650 E8.55533
G1 X102.850 Y105.578 E8.59622
G1 X101.499 Y104.888 E8.63716
G1 X100.000 Y104.651 E8.67809
G1 X98.501 Y104.888 E8.71902
G1 X97.150 Y105.578 E8.75995
G1 X96.078 Y106.650 E8.80085
G1 X95.388 Y108.001 E8.84178
G1 X95.283 Y108.664 E8.85989
G1 X85.836 Y108.664 E9.11476
G1 X85.836 Y95.336 E9.47432
G1 X96.714 Y95.336 E9.76777
G1 X97.001 Y93.525 E9.81721
G1 X97.448 Y92.646 E9.84383
G1 X98.146 Y91.948 E9.87045
G1 X99.025 Y91.501 E9.89707
G1 X100.000 Y91.346 E9.92369
G1 X100.975 Y91.501 E9.95030
G1 X101.854 Y91.948 E9.97692
G1 X102.552 Y92.646 E10.00354
G1 X102.999 Y93.525 E10.03016
G1 X103.275 Y95.262 E10.07758
G1 X103.765 Y94.775 F7800.000
G1 F1800
G1 X114.725 Y94.775 E10.30346
G1 X114.725 Y109.225 E10.60128
G1 X104.238 Y109.225 E10.81743
G1 X104.072 Y108.177 E10.83930
G1 X103.463 Y106.983 E10.86691
G1 X102.517 Y106.037 E10.89450
G1 X101.323 Y105.428 E10.92211
G1 X100.000 Y105.219 E10.94972
G1 X98.677 Y105.428 E10.97733
G1 X97.483 Y106.037 E11.00495
G1 X96.537 Y106.983 E11.03254
G1 X95.928 Y108.177 E11.06015
G1 X95.762 Y109.225 E11.08202
G1 X85.275 Y109.225 E11.29816
G1 X85.275 Y94.775 E11.59598
G1 X96.235 Y94.775 E11.82187
G1 X96.461 Y93.350 E11.85160
G1 X96.989 Y92.313 E11.87560
G1 X97.813 Y91.489 E11.89960
G1 X98.850 Y90.961 E11.92360
G1 X100.000 Y90.778 E11.94759
G1 X101.150 Y90.961 E11.97159
G1 X102.187 Y91.489 E11.99558
G1 X103.011 Y92.313 E12.01958
G1 X103.539 Y93.350 E12.04358
G1 X103.753 Y94.701 E12.07177
G1 X103.815 Y95.273 F7800.000
G1 X102.156 Y95.013 F7800.000
G1 F1200
G1 X99.560 Y92.417 E12.17253
G1 X99.176 Y92.477 E12.18319
G1 X98.865 Y92.636 E12.19277
G1 X102.329 Y96.100 E12.32718
G1 X102.448 Y96.854 E12.34814
G1 X103.083 Y96.854 E12.36555
G1 X101.809 Y93.752 F7800.000
G1 F1200
G1 X100.748 Y92.691 E12.40674
G1 X100.850 Y92.743 E12.40988
G1 X101.263 Y93.156 E12.42591
G1 X101.315 Y93.258 E12.42905
G1 X103.041 Y104.127 F7800.000
G1 F1200
G1 X103.360 Y104.289 E12.43887
G1 X104.716 Y105.646 E12.49150
G1 X104.879 Y105.964 E12.50132
G1 X106.555 Y107.640 E12.56635
G1 X113.140 Y96.854 F7800.000
G1 F1200
G1 X112.646 Y96.360 E12.58554
G1 X111.732 Y96.360 E12.61063
G1 X113.140 Y97.768 E12.66530
G1 X113.140 Y98.683 E12.69039
G1 X110.817 Y96.360 E12.78054
G1 X109.903 Y96.360 E12.80562
G1 X113.140 Y99.597 E12.93125
G1 X113.140 Y100.511 E12.95634
G1 X108.989 Y96.360 E13.11745
G1 X108.074 Y96.360 E13.14254
G1 X113.140 Y101.426 E13.33912
G1 X113.140 Y102.340 E13.36421
G1 X107.160 Y96.360 E13.59628
G1 X106.246 Y96.360 E13.62137
G1 X113.140 Y103.254 E13.88891
G1 X113.140 Y104.169 E13.91400
G1 X105.331 Y96.360 E14.21702
G1 X104.417 Y96.360 E14.24211
G1 X113.140 Y105.083 E14.58062
G1 X113.140 Y105.997 E14.60570
G1 X103.503 Y96.360 E14.97969
G1 X102.588 Y96.360 E15.00478
G1 X113.140 Y106.912 E15.41424
G1 X113.140 Y107.640 E15.43424
G1 X112.955 Y107.640 E15.43933
G1 X98.356 Y93.042 E16.00582
G1 X98.243 Y93.156 E16.01023
G1 X98.011 Y93.611 E16.02424
G1 X112.041 Y107.640 E16.56866
G1 X111.126 Y107.640 E16.59375
G1 X97.866 Y94.380 E17.10832
G1 X97.741 Y95.169 E17.13024
G1 X110.212 Y107.640 E17.61418
G1 X109.298 Y107.640 E17.63927
G1 X97.616 Y95.958 E18.09259
G1 X97.552 Y96.360 E18.10374
G1 X97.103 Y96.360 E18.11607
G1 X108.383 Y107.640 E18.55381
G1 X107.469 Y107.640 E18.57890
G1 X96.188 Y96.360 E19.01664
G1 X95.274 Y96.360 E19.04173
G1 X103.536 Y104.621 E19.36232
G1 X102.144 Y103.912 E19.40519
G1 X101.868 Y103.868 E19.41285
G1 X94.360 Y96.360 E19.70420
G1 X93.445 Y96.360 E19.72929
G1 X100.781 Y103.696 E20.01397
G1 X100.247 Y103.611 E20.02881
G1 X99.846 Y103.675 E20.03995
G1 X92.531 Y96.360 E20.32381
G1 X91.617 Y96.360 E20.34890
G1 X99.057 Y103.800 E20.63760
G1 X98.351 Y103.912 E20.65722
G1 X98.287 Y103.944 E20.65919
G1 X90.702 Y96.360 E20.95350
G1 X89.788 Y96.360 E20.97859
G1 X97.681 Y104.253 E21.28488
G1 X97.076 Y104.562 E21.30353
G1 X88.874 Y96.360 E21.62180
G1 X87.959 Y96.360 E21.64689
G1 X96.512 Y104.912 E21.97876
G1 X96.055 Y105.369 E21.99650
G1 X87.045 Y96.360 E22.34612
G1 X86.860 Y96.360 E22.35121
G1 X86.860 Y97.088 E22.37120
G1 X95.598 Y105.826 E22.71027
G1 X95.284 Y106.140 E22.72245
G1 X95.187 Y106.330 E22.72830
G1 X86.860 Y98.003 E23.05144
G1 X86.860 Y98.917 E23.07652
G1 X94.878 Y106.936 E23.38768
G1 X94.569 Y107.541 E23.40633
G1 X86.860 Y99.831 E23.70550
G1 X86.860 Y100.746 E23.73059
G1 X93.754 Y107.640 E23.99814
G1 X92.840 Y107.640 E24.02323
G1 X86.860 Y101.660 E24.25529
G1 X86.860 Y102.574 E24.28038
G1 X91.926 Y107.640 E24.47697
G1 X91.011 Y107.640 E24.50206
G1 X86.860 Y103.489 E24.66316
G1 X86.860 Y104.403 E24.68825
G1 X90.097 Y107.640 E24.81388
G1 X89.183 Y107.640 E24.83897
G1 X86.860 Y105.317 E24.92912
G1 X86.860 Y106.232 E24.95420
G1 X88.268 Y107.640 E25.00887
G1 X87.354 Y107.640 E25.03396
G1 X86.860 Y107.146 E25.05315
G1 Z0.950 F7800.000
G1 E23.05315 F2400.00000
G92 E0
G1 X102.744 Y95.971 F7800.000
G1 E2.00000 F2400.00000
G1 F3600
G1 X113.529 Y95.971 E2.29094
G1 X113.529 Y108.029 E2.61621
G1 X105.259 Y108.029 E2.83929
G1 X105.224 Y107.802 E2.84547
G1 X104.443 Y106.271 E2.89184
G1 X103.229 Y105.057 E2.93816
G1 X101.698 Y104.276 E2.98452
G1 X100.000 Y104.007 E3.03089
G1 X98.302 Y104.276 E3.07725
G1 X96.771 Y105.057 E3.12362
G1 X95.557 Y106.271 E3.16994
G1 X94.776 Y107.802 E3.21631
G1 X94.741 Y108.029 E3.22249
G1 X86.471 Y108.029 E3.44557
G1 X86.471 Y95.971 E3.77084
G1 X97.256 Y95.971 E4.06178
G1 X97.613 Y93.724 E4.12315
G1 X97.969 Y93.025 E4.14434
G1 X98.525 Y92.469 E4.16553
G1 X99.224 Y92.113 E4.18671
G1 X100.000 Y91.990 E4.20790
G1 X100.776 Y92.113 E4.22908
G1 X101.475 Y92.469 E4.25027
G1 X102.031 Y93.025 E4.27146
G1 X102.387 Y93.724 E4.29265
G1 X102.732 Y95.897 E4.35200
G1 X103.286 Y95.336 F7800.000
G1 F3600
G1 X114.164 Y95.336 E4.64544
G1 X114.164 Y108.664 E5.00501
G1 X104.717 Y108.664 E5.25988
G1 X104.612 Y108.001 E5.27798
G1 X103.922 Y106.650 E5.31892
G1 X102.850 Y105.578 E5.35981
G1 X101.499 Y104.888 E5.40075
G1 X100.000 Y104.651 E5.44168
G1 X98.501 Y104.888 E5.48261
G1 X97.150 Y105.578 E5.52354
G1 X96.078 Y106.650 E5.56444
G1 X95.388 Y108.001 E5.60537
G1 X95.283 Y108.664 E5.62348
G1 X85.836 Y108.664 E5.87835
G1 X85.836 Y95.336 E6.23791
G1 X96.714 Y95.336 E6.53136
G1 X97.001 Y93.525 E6.58080
G1 X97.448 Y92.646 E6.60742
G1 X98.146 Y91.948 E6.63404
G1 X99.025 Y91.501 E6.66066
G1 X100.000 Y91.346 E6.68728
G1 X100.975 Y91.501 E6.71389
G1 X101.854 Y91.948 E6.74051
G1 X102.552 Y92.646 E6.76713
G1 X102.999 Y93.525 E6.79375
G1 X103.275 Y95.262 E6.84117
G1 X103.765 Y94.775 F7800.000
G1 F1800
G1 X114.725 Y94.775 E7.06705
G1 X114.725 Y109.225 E7.36487
G1 X104.238 Y109.225 E7.58102
G1 X104.072 Y108.177 E7.60289
G1 X103.463 Y106.983 E7.63050
G1 X102.517 Y106.037 E7.65809
G1 X101.323 Y105.428 E7.68570
G1 X100.000 Y105.219 E7.71331
G1 X98.677 Y105.428 E7.74092
G1 X97.483 Y106.037 E7.76854
G1 X96.537 Y106.983 E7.79613
G1 X95.928 Y108.177 E7.82374
G1 X95.762 Y109.225 E7.84561
G1 X85.275 Y109.225 E8.06175
G1 X85.275 Y94.775 E8.35957
G1 X96.235 Y94.775 E8.58546
G1 X96.461 Y93.350 E8.61519
G1 X96.989 Y92.313 E8.63919
G1 X97.813 Y91.489 E8.66319
G1 X98.850 Y90.961 E8.68719
G1 X100.000 Y90.778 E8.71118
G1 X101.150 Y90.961 E8.73518
G1 X102.187 Y91.489 E8.75918
G1 X103.011 Y92.313 E8.78317
G1 X103.539 Y93.350 E8.80717
G1 X103.753 Y94.701 E8.83536
G1 X103.815 Y95.273 F7800.000
G1 E6.83536 F2400.00000
G92 E0
G1 X98.758 Y93.185 F7800.000
G1 E2.00000 F2400.00000
G1 F900
G1 X98.656 Y93.237 E2.00314
G1 X98.243 Y93.650 E2.01917
G1 X98.191 Y93.752 E2.02231
G1 X99.252 Y92.691 E2.06351
G1 X99.670 Y92.477 E2.07639
G1 X100.247 Y92.386 E2.09241
