; generated by Slic3r 1.3.0 on 2020-06-20 at 19:48:15

; external perimeters extrusion width = 0.55mm (4.37mm^3/s)
; perimeters extrusion width = 0.70mm (11.44mm^3/s)
; infill extrusion width = 0.63mm (13.45mm^3/s)
; solid infill extrusion width = 0.70mm (3.81mm^3/s)
; top infill extrusion width = 0.70mm (2.86mm^3/s)

M107
M104 S200 ; set temperature
G28 ; home all axes
G1 Z5 F5000 ; lift nozzle

; Filament gcode

M109 S200 ; set temperature and wait for it to be reached
G21 ; set units to millimeters
G90 ; use absolute coordinates
M82 ; use absolute distances for extrusion
G92 E0
G1 Z0.350 F7800.000
G1 E-2.00000 F2400.00000
G92 E0
G1 X79.915 Y90.253 F7800.000
G1 E2.00000 F2400.00000
G1 F1800
G1 X81.668 Y88.774 E2.07096
G1 X83.235 Y88.114 E2.12357
G1 X96.999 Y84.310 E2.56541
G1 X97.726 Y84.153 E2.58843
G1 X98.962 Y83.957 E2.62715
G1 X101.038 Y83.957 E2.69136
G1 X102.274 Y84.153 E2.73008
G1 X103.001 Y84.310 E2.75311
G1 X116.765 Y88.114 E3.19495
G1 X118.836 Y89.099 E3.26591
G1 X120.448 Y90.731 E3.33687
G1 X121.407 Y92.814 E3.40783
G1 X121.625 Y94.500 E3.46044
G1 X121.625 Y109.500 E3.92456
G1 X121.228 Y111.759 E3.99552
G1 X120.085 Y113.747 E4.06648
G1 X118.332 Y115.226 E4.13744
G1 X116.180 Y116.019 E4.20841
G1 X115.000 Y116.125 E4.24506
G1 X85.000 Y116.125 E5.17330
G1 X82.741 Y115.728 E5.24426
G1 X80.753 Y114.585 E5.31522
G1 X79.274 Y112.832 E5.38618
G1 X78.481 Y110.680 E5.45715
G1 X78.375 Y109.500 E5.49380
G1 X78.375 Y94.500 E5.95792
G1 X78.772 Y92.241 E6.02888
G1 X79.878 Y90.318 E6.09752
G1 E4.09752 F2400.00000
G92 E0
G1 X102.634 Y96.100 F7800.000
G1 E2.00000 F2400.00000
G1 F1800
G1 X113.400 Y96.100 E2.33312
G1 X113.400 Y107.900 E2.69824
G1 X86.600 Y107.900 E3.52749
G1 X86.600 Y96.100 E3.89261
G1 X97.366 Y96.100 E4.22573
G1 X97.736 Y93.765 E4.29889
G1 X98.074 Y93.101 E4.32193
G1 X98.601 Y92.574 E4.34497
G1 X99.265 Y92.236 E4.36801
G1 X100.000 Y92.120 E4.39105
G1 X100.735 Y92.236 E4.41409
G1 X101.399 Y92.574 E4.43714
G1 X101.926 Y93.101 E4.46018
G1 X102.264 Y93.765 E4.48322
G1 X102.622 Y96.026 E4.55406
G1 X103.168 Y95.475 F7800.000
G1 F1800
G1 X114.025 Y95.475 E4.89000
G1 X114.025 Y108.525 E5.29380
G1 X85.975 Y108.525 E6.16171
G1 X85.975 Y95.475 E6.56550
G1 X96.832 Y95.475 E6.90145
G1 X97.135 Y93.569 E6.96115
G1 X97.563 Y92.729 E6.99032
G1 X98.229 Y92.063 E7.01948
G1 X99.069 Y91.635 E7.04865
G1 X100.000 Y91.487 E7.07782
G1 X100.931 Y91.635 E7.10698
G1 X101.771 Y92.063 E7.13615
G1 X102.437 Y92.729 E7.16531
G1 X102.865 Y93.569 E7.19448
G1 X103.156 Y95.401 E7.25186
G1 X103.701 Y94.850 F7800.000
G1 F1800
G1 X114.650 Y94.850 E7.59064
G1 X114.650 Y109.150 E8.03310
G1 X85.350 Y109.150 E8.93968
G1 X85.350 Y94.850 E9.38214
G1 X96.299 Y94.850 E9.72091
G1 X96.533 Y93.374 E9.76717
G1 X97.051 Y92.357 E9.80246
G1 X97.857 Y91.551 E9.83775
G1 X98.874 Y91.033 E9.87304
G1 X100.000 Y90.854 E9.90833
G1 X101.126 Y91.033 E9.94362
G1 X102.143 Y91.551 E9.97891
G1 X102.949 Y92.357 E10.01420
G1 X103.467 Y93.374 E10.04949
G1 X103.689 Y94.776 E10.09343
G1 X103.750 Y95.348 F7800.000
G1 E8.09343 F2400.00000
G92 E0
G1 X98.757 Y93.316 F7800.000
G1 E2.00000 F2400.00000
G1 F1800
G1 X98.330 Y93.743 E2.01908
G1 X99.243 Y92.830 E2.05988
G1 X99.703 Y92.595 E2.07621
G1 X100.243 Y92.509 E2.09348
G1 X100.435 Y92.540 E2.09962
G1 X97.968 Y95.007 E2.20989
G1 X97.797 Y96.080 E2.24420
G1 X101.114 Y92.764 E2.39240
G1 X101.270 Y92.843 E2.39795
G1 X101.603 Y93.176 E2.41284
G1 X87.261 Y107.518 E3.05376
G1 X88.164 Y107.518 E3.08228
G1 X101.913 Y93.769 E3.69672
G1 X102.037 Y94.548 E3.72164
G1 X89.066 Y107.518 E4.30126
G1 X89.969 Y107.518 E4.32978
G1 X102.160 Y95.327 E4.87459
G1 X102.284 Y96.106 E4.89951
G1 X90.872 Y107.518 E5.40951
G1 X91.774 Y107.518 E5.43803
G1 X102.811 Y96.482 E5.93125
G1 X103.713 Y96.482 E5.95977
G1 X92.677 Y107.518 E6.45298
G1 X93.579 Y107.518 E6.48150
G1 X104.616 Y96.482 E6.97472
G1 X105.518 Y96.482 E7.00324
G1 X94.482 Y107.518 E7.49645
G1 X95.384 Y107.518 E7.52497
G1 X106.421 Y96.482 E8.01819
G1 X107.323 Y96.482 E8.04671
G1 X96.287 Y107.518 E8.53993
G1 X97.189 Y107.518 E8.56845
G1 X108.226 Y96.482 E9.06166
G1 X109.129 Y96.482 E9.09018
G1 X98.092 Y107.518 E9.58340
G1 X98.994 Y107.518 E9.61192
G1 X110.031 Y96.482 E10.10513
G1 X110.934 Y96.482 E10.13365
G1 X99.897 Y107.518 E10.62687
G1 X100.799 Y107.518 E10.65539
G1 X111.836 Y96.482 E11.14861
G1 X112.739 Y96.482 E11.17712
G1 X101.702 Y107.518 E11.67034
G1 X102.604 Y107.518 E11.69886
G1 X113.018 Y97.104 E12.16425
G1 X113.018 Y98.007 E12.19277
G1 X103.507 Y107.518 E12.61782
G1 X104.409 Y107.518 E12.64634
G1 X113.018 Y98.909 E13.03106
G1 X113.018 Y99.812 E13.05958
G1 X105.312 Y107.518 E13.40397
G1 X106.214 Y107.518 E13.43249
G1 X113.018 Y100.715 E13.73654
G1 X113.018 Y101.617 E13.76506
G1 X107.117 Y107.518 E14.02878
G1 X108.020 Y107.518 E14.05730
G1 X113.018 Y102.520 E14.28069
G1 X113.018 Y103.422 E14.30921
G1 X108.922 Y107.518 E14.49227
G1 X109.825 Y107.518 E14.52079
G1 X113.018 Y104.325 E14.66351
G1 X113.018 Y105.227 E14.69203
G1 X110.727 Y107.518 E14.79443
G1 X111.630 Y107.518 E14.82294
G1 X113.018 Y106.130 E14.88500
G1 X113.018 Y107.032 E14.91352
G1 X112.532 Y107.518 E14.93525
G1 E12.93525 F2400.00000
G92 E0
G1 X86.982 Y106.896 F7800.000
G1 E2.00000 F2400.00000
G1 F1800
G1 X97.396 Y96.482 E2.46539
G1 X96.493 Y96.482 E2.49391
G1 X86.982 Y105.993 E2.91896
G1 X86.982 Y105.091 E2.94748
G1 X95.591 Y96.482 E3.33220
G1 X94.688 Y96.482 E3.36072
G1 X86.982 Y104.188 E3.70511
G1 X86.982 Y103.286 E3.73363
G1 X93.786 Y96.482 E4.03769
G1 X92.883 Y96.482 E4.06621
G1 X86.982 Y102.383 E4.32994
G1 X86.982 Y101.480 E4.35846
G1 X91.980 Y96.482 E4.58185
G1 X91.078 Y96.482 E4.61037
G1 X86.982 Y100.578 E4.79343
G1 X86.982 Y99.675 E4.82195
G1 X90.175 Y96.482 E4.96467
G1 X89.273 Y96.482 E4.99319
G1 X86.982 Y98.773 E5.09559
G1 X86.982 Y97.870 E5.12411
G1 X88.370 Y96.482 E5.18617
G1 X87.468 Y96.482 E5.21469
G1 X86.982 Y96.968 E5.23641
G1 Z0.650 F7800.000
G1 X102.744 Y95.971 F7800.000
G1 F3600
G1 X113.529 Y95.971 E5.52735
G1 X113.529 Y108.029 E5.85262
G1 X86.471 Y108.029 E6.58254
G1 X86.471 Y95.971 E6.90781
G1 X97.256 Y95.971 E7.19876
G1 X97.613 Y93.724 E7.26013
G1 X97.969 Y93.025 E7.28131
G1 X98.525 Y92.469 E7.30250
G1 X99.224 Y92.113 E7.32369
G1 X100.000 Y91.990 E7.34488
G1 X100.776 Y92.113 E7.36606
G1 X101.475 Y92.469 E7.38725
G1 X102.031 Y93.025 E7.40844
G1 X102.387 Y93.724 E7.42963
G1 X102.732 Y95.897 E7.48897
G1 X103.286 Y95.336 F7800.000
G1 F3600
G1 X114.164 Y95.336 E7.78242
G1 X114.164 Y108.664 E8.14199
G1 X85.836 Y108.664 E8.90620
G1 X85.836 Y95.336 E9.26576
G1 X96.714 Y95.336 E9.55921
G1 X97.001 Y93.525 E9.60865
G1 X97.448 Y92.646 E9.63527
G1 X98.146 Y91.948 E9.66189
G1 X99.025 Y91.501 E9.68851
G1 X100.000 Y91.346 E9.71513
G1 X100.975 Y91.501 E9.74174
G1 X101.854 Y91.948 E9.76836
G1 X102.552 Y92.646 E9.79498
G1 X102.999 Y93.525 E9.82160
G1 X103.275 Y95.262 E9.86902
G1 X103.765 Y94.775 F7800.000
G1 F1800
G1 X114.725 Y94.775 E10.09491
G1 X114.725 Y109.225 E10.39272
G1 X85.275 Y109.225 E10.99970
G1 X85.275 Y94.775 E11.29752
G1 X96.235 Y94.775 E11.52340
G1 X96.461 Y93.350 E11.55314
G1 X96.989 Y92.313 E11.57713
G1 X97.813 Y91.489 E11.60113
G1 X98.850 Y90.961 E11.62513
G1 X100.000 Y90.778 E11.64913
G1 X101.150 Y90.961 E11.67312
G1 X102.187 Y91.489 E11.69712
G1 X103.011 Y92.313 E11.72112
G1 X103.539 Y93.350 E11.74511
G1 X103.753 Y94.701 E11.77330
G1 X103.815 Y95.273 F7800.000
G1 X102.156 Y95.013 F7800.000
G1 F1200
G1 X99.560 Y92.417 E11.87406
G1 X99.176 Y92.477 E11.88472
G1 X98.865 Y92.636 E11.89431
G1 X102.329 Y96.100 E12.02871
G1 X102.448 Y96.854 E12.04967
G1 X103.083 Y96.854 E12.06709
G1 X101.809 Y93.752 F7800.000
G1 F1200
G1 X100.748 Y92.691 E12.10827
G1 X100.850 Y92.743 E12.11142
G1 X101.263 Y93.156 E12.12744
G1 X101.315 Y93.258 E12.13059
G1 E10.13059 F2400.00000
G92 E0
G1 X113.140 Y96.854 F7800.000
G1 E2.00000 F2400.00000
G1 F1200
G1 X112.646 Y96.360 E2.01919
G1 X111.732 Y96.360 E2.04428
G1 X113.140 Y97.768 E2.09895
G1 X113.140 Y98.683 E2.12404
G1 X110.817 Y96.360 E2.21418
G1 X109.903 Y96.360 E2.23927
G1 X113.140 Y99.597 E2.36490
G1 X113.140 Y100.511 E2.38999
G1 X108.989 Y96.360 E2.55110
G1 X108.074 Y96.360 E2.57618
G1 X113.140 Y101.426 E2.77277
G1 X113.140 Y102.340 E2.79786
G1 X107.160 Y96.360 E3.02992
G1 X106.246 Y96.360 E3.05501
G1 X113.140 Y103.254 E3.32256
G1 X113.140 Y104.169 E3.34765
G1 X105.331 Y96.360 E3.65067
G1 X104.417 Y96.360 E3.67576
G1 X113.140 Y105.083 E4.01426
G1 X113.140 Y105.997 E4.03935
G1 X103.503 Y96.360 E4.41334
G1 X102.588 Y96.360 E4.43842
G1 X113.140 Y106.912 E4.84789
G1 X113.140 Y107.640 E4.86788
G1 X112.955 Y107.640 E4.87297
G1 X98.356 Y93.042 E5.43947
G1 X98.243 Y93.156 E5.44388
G1 X98.011 Y93.611 E5.45789
G1 X112.041 Y107.640 E6.00231
G1 X111.126 Y107.640 E6.02740
G1 X97.866 Y94.380 E6.54196
G1 X97.741 Y95.169 E6.56389
G1 X110.212 Y107.640 E7.04783
G1 X109.298 Y107.640 E7.07292
G1 X97.616 Y95.958 E7.52624
G1 X97.552 Y96.360 E7.53739
G1 X97.103 Y96.360 E7.54972
G1 X108.383 Y107.640 E7.98746
G1 X107.469 Y107.640 E8.01255
G1 X96.188 Y96.360 E8.45029
G1 X95.274 Y96.360 E8.47538
G1 X106.555 Y107.640 E8.91312
G1 X105.640 Y107.640 E8.93821
G1 X94.360 Y96.360 E9.37595
G1 X93.445 Y96.360 E9.40104
G1 X104.726 Y107.640 E9.83879
G1 X103.812 Y107.640 E9.86387
G1 X92.531 Y96.360 E10.30162
G1 X91.617 Y96.360 E10.32671
G1 X102.897 Y107.640 E10.76445
G1 X101.983 Y107.640 E10.78954
G1 X90.702 Y96.360 E11.22728
G1 X89.788 Y96.360 E11.25237
G1 X101.069 Y107.640 E11.69011
G1 X100.155 Y107.640 E11.71520
G1 X88.874 Y96.360 E12.15294
G1 X87.959 Y96.360 E12.17803
G1 X99.240 Y107.640 E12.61578
G1 X98.326 Y107.640 E12.64086
G1 X87.045 Y96.360 E13.07861
G1 X86.860 Y96.360 E13.08370
G1 X86.860 Y97.088 E13.10370
G1 X97.412 Y107.640 E13.51316
G1 X96.497 Y107.640 E13.53825
G1 X86.860 Y98.003 E13.91223
G1 X86.860 Y98.917 E13.93732
G1 X95.583 Y107.640 E14.27582
G1 X94.669 Y107.640 E14.30091
G1 X86.860 Y99.831 E14.60394
G1 X86.860 Y100.746 E14.62902
G1 X93.754 Y107.640 E14.89657
G1 X92.840 Y107.640 E14.92166
G1 X86.860 Y101.660 E15.15373
G1 X86.860 Y102.574 E15.17881
G1 X91.926 Y107.640 E15.37540
G1 X91.011 Y107.640 E15.40049
G1 X86.860 Y103.489 E15.56160
G1 X86.860 Y104.403 E15.58668
G1 X90.097 Y107.640 E15.71231
G1 X89.183 Y107.640 E15.73740
G1 X86.860 Y105.317 E15.82755
G1 X86.860 Y106.232 E15.85264
G1 X88.268 Y107.640 E15.90731
G1 X87.354 Y107.640 E15.93239
G1 X86.860 Y107.146 E15.95158
G1 Z0.950 F7800.000
G1 E13.95158 F2400.00000
G92 E0
G1 X102.744 Y95.971 F7800.000
G1 E2.00000 F2400.00000
G1 F3600
G1 X113.529 Y95.971 E2.29094
G1 X113.529 Y108.029 E2.61621
G1 X86.471 Y108.029 E3.34613
G1 X86.471 Y95.971 E3.67140
G1 X97.256 Y95.971 E3.96235
G1 X97.613 Y93.724 E4.02372
G1 X97.969 Y93.025 E4.04490
G1 X98.525 Y92.469 E4.06609
G1 X99.224 Y92.113 E4.08728
G1 X100.000 Y91.990 E4.10847
G1 X100.776 Y92.113 E4.12965
G1 X101.475 Y92.469 E4.15084
G1 X102.031 Y93.025 E4.17203
G1 X102.387 Y93.724 E4.19322
G1 X102.732 Y95.897 E4.25256
G1 X103.286 Y95.336 F7800.000
G1 F3600
G1 X114.164 Y95.336 E4.54601
G1 X114.164 Y108.664 E4.90558
G1 X85.836 Y108.664 E5.66979
G1 X85.836 Y95.336 E6.02935
G1 X96.714 Y95.336 E6.32280
G1 X97.001 Y93.525 E6.37224
G1 X97.448 Y92.646 E6.39886
G1 X98.146 Y91.948 E6.42548
G1 X99.025 Y91.501 E6.45210
G1 X100.000 Y91.346 E6.47872
G1 X100.975 Y91.501 E6.50533
G1 X101.854 Y91.948 E6.53195
G1 X102.552 Y92.646 E6.55857
G1 X102.999 Y93.525 E6.58519
G1 X103.275 Y95.262 E6.63261
G1 X103.765 Y94.775 F7800.000
G1 F1800
G1 X114.725 Y94.775 E6.85850
G1 X114.725 Y109.225 E7.15631
G1 X85.275 Y109.225 E7.76329
G1 X85.275 Y94.775 E8.06111
G1 X96.235 Y94.775 E8.28699
G1 X96.461 Y93.350 E8.31673
G1 X96.989 Y92.313 E8.34073
G1 X97.813 Y91.489 E8.36472
G1 X98.850 Y90.961 E8.38872
G1 X100.000 Y90.778 E8.41272
G1 X101.150 Y90.961 E8.43671
G1 X102.187 Y91.489 E8.46071
G1 X103.011 Y92.313 E8.48471
G1 X103.539 Y93.350 E8.50871
G1 X103.753 Y94.701 E8.53690
G1 X103.815 Y95.273 F7800.000
G1 E6.53690 F2400.00000
G92 E0
G1 X98.758 Y93.185 F7800.000
G1 E2.00000 F2400.00000
G1 F900
G1 X98.656 Y93.237 E2.00314
G1 X98.243 Y93.650 E2.01917
G1 X98.191 Y93.752 E2.02231
G1 X99.252 Y92.691 E2.06351
G1 X99.670 Y92.477 E2.07639
G1 X100.247 Y92.386 E2.09241
G1 X100.440 Y92.417 E2.09778
G1 X97.844 Y95.013 E2.19854
G1 X97.671 Y96.100 E2.22872
G1 X101.135 Y92.636 E2.36313
G1 X101.344 Y92.743 E2.36958
G1 X101.644 Y93.042 E2.38119
G1 X87.045 Y107.640 E2.94768
G1 X87.959 Y107.640 E2.97276
G1 X101.989 Y93.611 E3.51718
G1 X102.023 Y93.676 E3.51920
G1 X102.134 Y94.380 E3.53875
G1 X88.874 Y107.640 E4.05332
G1 X89.788 Y107.640 E4.07840
G1 X102.259 Y95.169 E4.56234
G1 X102.384 Y95.958 E4.58427
G1 X90.702 Y107.640 E5.03758
G1 X91.617 Y107.640 E5.06267
G1 X102.897 Y96.360 E5.50041
G1 X103.812 Y96.360 E5.52550
G1 X92.531 Y107.640 E5.96324
G1 X93.445 Y107.640 E5.98833
G1 X104.726 Y96.360 E6.42608
G1 X105.640 Y96.360 E6.45116
G1 X94.360 Y107.640 E6.88891
G1 X95.274 Y107.640 E6.91399
G1 X106.555 Y96.360 E7.35174
G1 X107.469 Y96.360 E7.37682
G1 X96.188 Y107.640 E7.81457
G1 X97.103 Y107.640 E7.83965
G1 X108.383 Y96.360 E8.27740
G1 X109.298 Y96.360 E8.30248
G1 X98.017 Y107.640 E8.74023
G1 X98.931 Y107.640 E8.76531
G1 X110.212 Y96.360 E9.20306
G1 X111.126 Y96.360 E9.22814
G1 X99.845 Y107.640 E9.66589
G1 X100.760 Y107.640 E9.69097
G1 X112.041 Y96.360 E10.12872
G1 X112.955 Y96.360 E10.15380
G1 X101.674 Y107.640 E10.59155
G1 X102.588 Y107.640 E10.61663
G1 X113.140 Y97.088 E11.02610
G1 X113.140 Y98.003 E11.05118
G1 X103.503 Y107.640 E11.42517
G1 X104.417 Y107.640 E11.45026
G1 X113.140 Y98.917 E11.78876
G1 X113.140 Y99.831 E11.81385
G1 X105.331 Y107.640 E12.11687
G1 X106.246 Y107.640 E12.14196
G1 X113.140 Y100.746 E12.40950
G1 X113.140 Y101.660 E12.43459
G1 X107.160 Y107.640 E12.66666
G1 X108.074 Y107.640 E12.69174
G1 X113.140 Y102.574 E12.88833
G1 X113.140 Y103.489 E12.91342
G1 X108.989 Y107.640 E13.07453
G1 X109.903 Y107.640 E13.09961
G1 X113.140 Y104.403 E13.22524
G1 X113.140 Y105.317 E13.25033
G1 X110.817 Y107.640 E13.34048
G1 X111.732 Y107.640 E13.36557
G1 X113.140 Y106.232 E13.42024
G1 X113.140 Y107.146 E13.44532
G1 X112.646 Y107.640 E13.46451
G1 E11.46451 F2400.00000
G92 E0
G1 X86.860 Y106.912 F7800.000
G1 E2.00000 F2400.00000
G1 F900
G1 X97.412 Y96.360 E2.40946
G1 X96.497 Y96.360 E2.43455
G1 X86.860 Y105.997 E2.80853
G1 X86.860 Y105.083 E2.83362
G1 X95.583 Y96.360 E3.17213
G1 X94.669 Y96.360 E3.19721
G1 X86.860 Y104.169 E3.50024
G1 X86.860 Y103.254 E3.52533
G1 X93.754 Y96.360 E3.79287
G1 X92.840 Y96.360 E3.81796
G1 X86.860 Y102.340 E4.05003
G1 X86.860 Y101.426 E4.07511
G1 X91.926 Y96.360 E4.27170
G1 X91.011 Y96.360 E4.29679
G1 X86.860 Y100.511 E4.45790
G1 X86.860 Y99.597 E4.48298
G1 X90.097 Y96.360 E4.60861
G1 X89.183 Y96.360 E4.63370
G1 X86.860 Y98.683 E4.72385
G1 X86.860 Y97.768 E4.74894
G1 X88.269 Y96.360 E4.80361
G1 X87.354 Y96.360 E4.82870
G1 X86.860 Y96.854 E4.84788
G1 E2.84788 F2400.00000
G92 E0
; Filament-specific end gcode 
;END gcode for filament

M104 S0 ; turn off temperature
G28 X0  ; home X axis
M84     ; disable motors

M140 S0 ; set bed temperature
; filament used = 70.1mm (0.5cm3)
; total filament cost = 0.0

; avoid_crossing_perimeters = 0
; bed_shape = 0x0,200x0,200x200,0x200
; bed_temperature = 0
; before_layer_gcode = 
; between_objects_gcode = 
; bridge_acceleration = 0
; bridge_fan_speed = 100
; brim_connections_width = 0
; brim_width = 0
; complete_objects = 0
; cooling = 1
; default_acceleration = 0
; disable_fan_first_layers = 3
; duplicate_distance = 6
; end_filament_gcode = "; Filament-specific end gcode \n;END gcode for filament\n"
